; G-Code generated by Simplify3D(R) Version 3.0.2
; Mai 3, 2017 at 5:54:44 
; Settings Summary
;   processName,Process1
;   applyToModels,B-Kreissegment gross
;   profileName,Default (modified)
;   profileVersion,2015-05-01 08:00:00
;   baseProfile,
;   printMaterial,PLA
;   printQuality,Medium
;   printExtruders,
;   extruderName,Linker Extruder
;   extruderToolheadNumber,1
;   extruderDiameter,0.5
;   extruderAutoWidth,0
;   extruderWidth,0.6
;   extrusionMultiplier,1
;   extruderUseRetract,1
;   extruderRetractionDistance,1
;   extruderExtraRestartDistance,0
;   extruderRetractionZLift,0
;   extruderRetractionSpeed,1800
;   extruderUseCoasting,0
;   extruderCoastingDistance,0.2
;   extruderUseWipe,0
;   extruderWipeDistance,5
;   primaryExtruder,0
;   layerHeight,0.25
;   topSolidLayers,2
;   bottomSolidLayers,2
;   perimeterOutlines,2
;   printPerimetersInsideOut,1
;   startPointOption,2
;   startPointOriginX,0
;   startPointOriginY,0
;   startPointOriginZ,300
;   sequentialIslands,0
;   spiralVaseMode,0
;   firstLayerHeightPercentage,100
;   firstLayerWidthPercentage,100
;   firstLayerUnderspeed,0.5
;   useRaft,0
;   raftExtruder,0
;   raftLayers,3
;   raftOffset,3
;   raftSeparationDistance,0.14
;   raftInfill,85
;   disableRaftBaseLayers,0
;   useSkirt,1
;   skirtExtruder,0
;   skirtLayers,1
;   skirtOutlines,2
;   skirtOffset,4
;   usePrimePillar,0
;   primePillarExtruder,999
;   primePillarWidth,12
;   primePillarLocation,7
;   primePillarSpeedMultiplier,1
;   useOozeShield,0
;   oozeShieldExtruder,999
;   oozeShieldOffset,2
;   oozeShieldOutlines,1
;   oozeShieldSidewallShape,1
;   oozeShieldSidewallAngle,30
;   oozeShieldSpeedMultiplier,1
;   infillExtruder,0
;   internalInfillPattern,Rectilinear
;   externalInfillPattern,Concentric
;   infillPercentage,100
;   outlineOverlapPercentage,24
;   infillExtrusionWidthPercentage,100
;   minInfillLength,5
;   infillLayerInterval,1
;   infillAngles,45,-45
;   overlapInfillAngles,0
;   generateSupport,0
;   supportExtruder,0
;   supportInfillPercentage,30
;   supportExtraInflation,0
;   denseSupportLayers,0
;   denseSupportInfillPercentage,70
;   supportLayerInterval,1
;   supportHorizontalPartOffset,0.3
;   supportUpperSeparationLayers,1
;   supportLowerSeparationLayers,1
;   supportType,0
;   supportGridSpacing,4
;   maxOverhangAngle,45
;   supportAngles,0
;   temperatureName,Linker Extruder,Headbed
;   temperatureNumber,1,0
;   temperatureSetpointCount,1,1
;   temperatureSetpointLayers,1,1
;   temperatureSetpointTemperatures,205,50
;   temperatureStabilizeAtStartup,1,1
;   temperatureHeatedBed,0,1
;   temperatureRelayBetweenLayers,0,0
;   temperatureRelayBetweenLoops,0,0
;   fanLayers,1,2
;   fanSpeeds,0,100
;   blipFanToFullPower,0
;   adjustSpeedForCooling,1
;   minSpeedLayerTime,15
;   minCoolingSpeedSlowdown,20
;   increaseFanForCooling,0
;   minFanLayerTime,45
;   maxCoolingFanSpeed,100
;   increaseFanForBridging,0
;   bridgingFanSpeed,100
;   use5D,1
;   relativeEdistances,0
;   allowEaxisZeroing,1
;   independentExtruderAxes,0
;   includeM10123,0
;   stickySupport,1
;   applyToolheadOffsets,0
;   gcodeXoffset,0
;   gcodeYoffset,0
;   gcodeZoffset,0
;   overrideMachineDefinition,0
;   machineTypeOverride,0
;   strokeXoverride,200
;   strokeYoverride,200
;   strokeZoverride,200
;   originOffsetXoverride,0
;   originOffsetYoverride,0
;   originOffsetZoverride,0
;   homeXdirOverride,-1
;   homeYdirOverride,-1
;   homeZdirOverride,-1
;   flipXoverride,1
;   flipYoverride,-1
;   flipZoverride,1
;   toolheadOffsets,0,0|0,0|0,0|0,0|0,0|0,0
;   overrideFirmwareConfiguration,0
;   firmwareTypeOverride,RepRap (Marlin/Repetier/Sprinter)
;   GPXconfigOverride,r2
;   baudRateOverride,115200
;   overridePrinterModels,0
;   printerModelsOverride
;   startingGcode,G28 ; home all axes
;   layerChangeGcode,
;   retractionGcode,
;   toolChangeGcode,
;   endingGcode,M104 S0 ; turn off extruder,M140 S0 ; turn off bed,M84 ; disable motors
;   createX3G,0
;   celebration,0
;   celebrationSong,Random Song
;   createMB5G,0
;   postProcessing,
;   defaultSpeed,2400
;   outlineUnderspeed,0.7
;   solidInfillUnderspeed,0.8
;   supportUnderspeed,0.8
;   rapidXYspeed,4800
;   rapidZspeed,1002
;   minBridgingArea,50
;   bridgingExtraInflation,0
;   bridgingExtrusionMultiplier,1
;   bridgingSpeedMultiplier,1
;   filamentDiameter,2.85
;   filamentPricePerKg,46
;   filamentDensity,1.25
;   useMinPrintHeight,0
;   minPrintHeight,0
;   useMaxPrintHeight,0
;   maxPrintHeight,0
;   useDiaphragm,0
;   diaphragmLayerInterval,20
;   robustSlicing,1
;   mergeAllIntoSolid,0
;   onlyRetractWhenCrossingOutline,1
;   retractBetweenLayers,1
;   useRetractionMinTravel,0
;   retractionMinTravel,3
;   retractWhileWiping,0
;   onlyWipeOutlines,1
;   avoidCrossingOutline,0
;   maxMovementDetourFactor,3
;   toolChangeRetractionDistance,12
;   toolChangeExtraRestartDistance,-0.5
;   toolChangeRetractionSpeed,600
;   allowThinWallGapFill,1
;   thinWallAllowedOverlapPercentage,10
;   horizontalSizeCompensation,0
G90
M82
M106 S0
M140 S50
M190 S50
M104 S205 T1
M109 S205 T1
G28 ; home all axes
G92 E0
G1 E-1.0000 F1800
G1 Z0.250 F1002
; layer 1, Z = 0.25
T1
; tool H0.250 W0.600
; skirt
G1 X57.429 Y66.654 F4800
G1 E0.0000 F540
G92 E0
G1 X62.011 Y58.866 E0.2125 F1200
G1 X62.331 Y58.641 E0.2217
G1 X66.300 Y57.904 E0.3166
G1 X66.679 Y57.998 E0.3258
G1 X67.072 Y58.310 E0.3376
G1 X70.143 Y57.535 E0.4120
G1 X70.500 Y57.589 E0.4205
G1 X75.615 Y60.688 E0.5611
G1 X75.620 Y60.691 E0.5613
G1 X75.669 Y60.722 E0.5626
G1 X75.674 Y60.725 E0.5628
G1 X79.172 Y62.970 E0.6605
G1 X79.177 Y62.974 E0.6607
G1 X79.225 Y63.005 E0.6620
G1 X79.230 Y63.008 E0.6621
G1 X82.669 Y65.344 E0.7599
G1 X82.674 Y65.347 E0.7600
G1 X82.721 Y65.380 E0.7614
G1 X82.726 Y65.383 E0.7615
G1 X86.103 Y67.807 E0.8593
G1 X86.108 Y67.810 E0.8594
G1 X86.154 Y67.844 E0.8607
G1 X86.159 Y67.848 E0.8609
G1 X89.473 Y70.358 E0.9586
G1 X89.477 Y70.361 E0.9588
G1 X89.523 Y70.396 E0.9601
G1 X89.527 Y70.400 E0.9603
G1 X92.775 Y72.995 E1.0580
G1 X92.779 Y72.998 E1.0581
G1 X92.824 Y73.035 E1.0595
G1 X92.828 Y73.039 E1.0596
G1 X96.008 Y75.716 E1.1574
G1 X96.012 Y75.720 E1.1575
G1 X96.056 Y75.758 E1.1589
G1 X96.060 Y75.762 E1.1590
G1 X99.169 Y78.521 E1.2567
G1 X99.174 Y78.525 E1.2569
G1 X99.216 Y78.564 E1.2582
G1 X99.221 Y78.567 E1.2584
G1 X102.257 Y81.406 E1.3561
G1 X102.262 Y81.410 E1.3562
G1 X102.303 Y81.450 E1.3576
G1 X102.307 Y81.454 E1.3577
G1 X105.270 Y84.370 E1.4555
G1 X105.274 Y84.374 E1.4556
G1 X105.314 Y84.415 E1.4570
G1 X105.318 Y84.419 E1.4571
G1 X108.204 Y87.411 E1.5548
G1 X108.208 Y87.416 E1.5550
G1 X108.248 Y87.457 E1.5563
G1 X108.252 Y87.462 E1.5565
G1 X111.059 Y90.527 E1.6542
G1 X111.063 Y90.532 E1.6544
G1 X111.102 Y90.575 E1.6557
G1 X111.105 Y90.579 E1.6558
G1 X113.833 Y93.716 E1.7536
G1 X113.837 Y93.721 E1.7537
G1 X113.874 Y93.764 E1.7551
G1 X113.878 Y93.769 E1.7552
G1 X116.523 Y96.975 E1.8530
G1 X116.527 Y96.980 E1.8531
G1 X116.563 Y97.025 E1.8545
G1 X116.566 Y97.029 E1.8546
G1 X119.128 Y100.303 E1.9523
G1 X119.131 Y100.308 E1.9525
G1 X119.166 Y100.354 E1.9538
G1 X119.170 Y100.358 E1.9540
G1 X121.646 Y103.697 E2.0517
G1 X121.649 Y103.702 E2.0518
G1 X121.683 Y103.749 E2.0532
G1 X121.686 Y103.754 E2.0533
G1 X124.075 Y107.156 E2.1511
G1 X124.078 Y107.160 E2.1512
G1 X124.111 Y107.208 E2.1526
G1 X124.114 Y107.213 E2.1527
G1 X126.414 Y110.675 E2.2504
G1 X126.417 Y110.680 E2.2506
G1 X126.449 Y110.729 E2.2519
G1 X126.452 Y110.733 E2.2521
G1 X128.661 Y114.254 E2.3498
G1 X128.665 Y114.259 E2.3499
G1 X128.695 Y114.309 E2.3513
G1 X128.698 Y114.314 E2.3514
G1 X130.954 Y118.124 E2.4556
G1 X130.978 Y118.144 E2.4563
G1 X131.115 Y118.396 E2.4631
G1 X131.749 Y119.467 E2.4923
G1 X131.768 Y119.603 E2.4955
G1 X133.878 Y123.505 E2.5998
G1 X133.880 Y123.510 E2.6000
G1 X133.908 Y123.562 E2.6014
G1 X133.911 Y123.567 E2.6015
G1 X135.838 Y127.370 E2.7017
G1 X135.841 Y127.375 E2.7019
G1 X135.867 Y127.428 E2.7033
G1 X135.870 Y127.433 E2.7034
G1 X137.696 Y131.285 E2.8036
G1 X137.699 Y131.291 E2.8038
G1 X137.723 Y131.344 E2.8052
G1 X137.726 Y131.350 E2.8053
G1 X139.449 Y135.249 E2.9056
G1 X139.451 Y135.254 E2.9057
G1 X139.475 Y135.309 E2.9071
G1 X139.477 Y135.314 E2.9072
G1 X141.096 Y139.258 E3.0075
G1 X141.099 Y139.263 E3.0076
G1 X141.120 Y139.318 E3.0090
G1 X141.122 Y139.324 E3.0091
G1 X142.637 Y143.309 E3.1094
G1 X142.639 Y143.314 E3.1095
G1 X142.659 Y143.370 E3.1109
G1 X142.661 Y143.375 E3.1110
G1 X144.069 Y147.399 E3.2113
G1 X144.071 Y147.405 E3.2114
G1 X144.090 Y147.461 E3.2128
G1 X144.092 Y147.466 E3.2129
G1 X145.393 Y151.526 E3.3132
G1 X145.394 Y151.532 E3.3133
G1 X145.412 Y151.588 E3.3147
G1 X145.413 Y151.594 E3.3148
G1 X146.606 Y155.687 E3.4151
G1 X146.608 Y155.692 E3.4152
G1 X146.623 Y155.749 E3.4166
G1 X146.625 Y155.755 E3.4168
G1 X147.709 Y159.878 E3.5170
G1 X147.710 Y159.884 E3.5171
G1 X147.724 Y159.941 E3.5185
G1 X147.726 Y159.947 E3.5187
G1 X148.700 Y164.097 E3.6189
G1 X148.701 Y164.103 E3.6190
G1 X148.714 Y164.161 E3.6204
G1 X148.715 Y164.167 E3.6206
G1 X149.579 Y168.341 E3.7208
G1 X149.580 Y168.347 E3.7209
G1 X149.591 Y168.405 E3.7223
G1 X149.592 Y168.411 E3.7225
G1 X150.345 Y172.607 E3.8227
G1 X150.346 Y172.613 E3.8228
G1 X150.355 Y172.671 E3.8242
G1 X150.356 Y172.677 E3.8244
G1 X150.997 Y176.892 E3.9246
G1 X150.998 Y176.897 E3.9248
G1 X151.006 Y176.956 E3.9261
G1 X151.007 Y176.962 E3.9263
G1 X151.536 Y181.192 E4.0265
G1 X151.537 Y181.198 E4.0267
G1 X151.543 Y181.256 E4.0280
G1 X151.544 Y181.262 E4.0282
G1 X151.960 Y185.505 E4.1284
G1 X151.961 Y185.511 E4.1286
G1 X151.966 Y185.570 E4.1300
G1 X151.966 Y185.576 E4.1301
G1 X152.270 Y189.828 E4.2303
G1 X152.271 Y189.834 E4.2305
G1 X152.274 Y189.893 E4.2319
G1 X152.274 Y189.899 E4.2320
G1 X152.465 Y194.158 E4.3322
G1 X152.465 Y194.164 E4.3324
G1 X152.467 Y194.223 E4.3338
G1 X152.467 Y194.228 E4.3339
G1 X152.545 Y198.491 E4.4341
G1 X152.545 Y198.497 E4.4343
G1 X152.546 Y198.556 E4.4357
G1 X152.546 Y198.562 E4.4358
G1 X152.511 Y202.825 E4.5361
G1 X152.511 Y202.831 E4.5362
G1 X152.509 Y202.890 E4.5376
G1 X152.509 Y202.896 E4.5377
G1 X152.361 Y207.156 E4.6380
G1 X152.361 Y207.162 E4.6381
G1 X152.358 Y207.221 E4.6395
G1 X152.358 Y207.227 E4.6396
G1 X152.096 Y211.482 E4.7399
G1 X152.096 Y211.488 E4.7400
G1 X152.092 Y211.547 E4.7414
G1 X152.091 Y211.553 E4.7415
G1 X151.717 Y215.799 E4.8418
G1 X151.717 Y215.805 E4.8419
G1 X151.711 Y215.864 E4.8433
G1 X151.710 Y215.870 E4.8434
G1 X151.224 Y220.105 E4.9437
G1 X151.223 Y220.111 E4.9438
G1 X151.215 Y220.169 E4.9452
G1 X151.215 Y220.175 E4.9453
G1 X150.616 Y224.396 E5.0456
G1 X150.615 Y224.402 E5.0457
G1 X150.606 Y224.461 E5.0471
G1 X150.605 Y224.466 E5.0472
G1 X149.895 Y228.670 E5.1475
G1 X149.894 Y228.676 E5.1476
G1 X149.883 Y228.734 E5.1490
G1 X149.882 Y228.740 E5.1492
G1 X149.060 Y232.923 E5.2494
G1 X149.059 Y232.929 E5.2495
G1 X149.047 Y232.986 E5.2509
G1 X149.046 Y232.992 E5.2511
G1 X148.114 Y237.152 E5.3513
G1 X148.112 Y237.158 E5.3514
G1 X148.099 Y237.215 E5.3528
G1 X148.097 Y237.221 E5.3530
G1 X147.055 Y241.355 E5.4532
G1 X147.053 Y241.361 E5.4533
G1 X147.038 Y241.418 E5.4547
G1 X147.037 Y241.423 E5.4549
G1 X145.885 Y245.528 E5.5551
G1 X145.883 Y245.534 E5.5552
G1 X145.867 Y245.590 E5.5566
G1 X145.865 Y245.596 E5.5568
G1 X144.605 Y249.668 E5.6570
G1 X144.603 Y249.674 E5.6572
G1 X144.585 Y249.730 E5.6585
G1 X144.583 Y249.736 E5.6587
G1 X143.216 Y253.774 E5.7589
G1 X143.214 Y253.779 E5.7591
G1 X143.194 Y253.835 E5.7604
G1 X143.192 Y253.841 E5.7606
G1 X141.718 Y257.841 E5.8608
G1 X141.716 Y257.846 E5.8610
G1 X141.694 Y257.901 E5.8624
G1 X141.692 Y257.907 E5.8625
G1 X140.113 Y261.866 E5.9627
G1 X140.110 Y261.872 E5.9629
G1 X140.088 Y261.926 E5.9643
G1 X140.085 Y261.932 E5.9644
G1 X138.401 Y265.848 E6.0646
G1 X138.399 Y265.853 E6.0648
G1 X138.375 Y265.907 E6.0662
G1 X138.372 Y265.913 E6.0663
G1 X136.585 Y269.783 E6.1665
G1 X136.582 Y269.788 E6.1667
G1 X136.557 Y269.842 E6.1681
G1 X136.554 Y269.847 E6.1682
G1 X134.665 Y273.669 E6.2685
G1 X134.662 Y273.674 E6.2686
G1 X134.635 Y273.726 E6.2700
G1 X134.632 Y273.732 E6.2701
G1 X132.642 Y277.502 E6.3704
G1 X132.639 Y277.507 E6.3705
G1 X132.611 Y277.559 E6.3719
G1 X132.608 Y277.564 E6.3720
G1 X130.434 Y281.430 E6.4763
G1 X130.413 Y281.566 E6.4796
G1 X129.761 Y282.627 E6.5088
G1 X129.621 Y282.876 E6.5156
G1 X129.596 Y282.896 E6.5163
G1 X127.277 Y286.668 E6.6204
G1 X127.274 Y286.673 E6.6206
G1 X127.243 Y286.722 E6.6219
G1 X127.240 Y286.727 E6.6221
G1 X124.973 Y290.211 E6.7198
G1 X124.969 Y290.216 E6.7199
G1 X124.937 Y290.264 E6.7213
G1 X124.934 Y290.268 E6.7214
G1 X122.577 Y293.693 E6.8192
G1 X122.574 Y293.698 E6.8193
G1 X122.541 Y293.744 E6.8207
G1 X122.537 Y293.749 E6.8208
G1 X120.093 Y297.111 E6.9185
G1 X120.089 Y297.116 E6.9187
G1 X120.055 Y297.162 E6.9200
G1 X120.051 Y297.167 E6.9202
G1 X117.521 Y300.465 E7.0179
G1 X117.517 Y300.469 E7.0180
G1 X117.481 Y300.514 E7.0194
G1 X117.478 Y300.519 E7.0195
G1 X114.863 Y303.750 E7.1173
G1 X114.859 Y303.755 E7.1174
G1 X114.822 Y303.799 E7.1188
G1 X114.818 Y303.803 E7.1189
G1 X112.121 Y306.966 E7.2166
G1 X112.117 Y306.970 E7.2168
G1 X112.079 Y307.014 E7.2181
G1 X112.075 Y307.018 E7.2183
G1 X109.296 Y310.110 E7.3160
G1 X109.292 Y310.114 E7.3162
G1 X109.253 Y310.156 E7.3175
G1 X109.249 Y310.161 E7.3176
G1 X106.392 Y313.179 E7.4154
G1 X106.388 Y313.184 E7.4155
G1 X106.348 Y313.225 E7.4169
G1 X106.343 Y313.229 E7.4170
G1 X103.409 Y316.173 E7.5148
G1 X103.404 Y316.177 E7.5149
G1 X103.363 Y316.217 E7.5162
G1 X103.359 Y316.221 E7.5164
G1 X100.349 Y319.088 E7.6141
G1 X100.345 Y319.092 E7.6143
G1 X100.303 Y319.132 E7.6156
G1 X100.298 Y319.136 E7.6158
G1 X97.215 Y321.924 E7.7135
G1 X97.211 Y321.928 E7.7136
G1 X97.167 Y321.966 E7.7150
G1 X97.163 Y321.970 E7.7151
G1 X94.009 Y324.677 E7.8129
G1 X94.004 Y324.681 E7.8130
G1 X93.960 Y324.718 E7.8144
G1 X93.956 Y324.721 E7.8145
G1 X90.733 Y327.347 E7.9122
G1 X90.728 Y327.350 E7.9124
G1 X90.683 Y327.386 E7.9137
G1 X90.678 Y327.390 E7.9139
G1 X87.388 Y329.930 E8.0116
G1 X87.384 Y329.934 E8.0117
G1 X87.338 Y329.968 E8.0131
G1 X87.333 Y329.972 E8.0132
G1 X83.978 Y332.427 E8.1110
G1 X83.974 Y332.430 E8.1111
G1 X83.927 Y332.464 E8.1125
G1 X83.922 Y332.467 E8.1126
G1 X80.505 Y334.834 E8.2103
G1 X80.500 Y334.838 E8.2105
G1 X80.452 Y334.870 E8.2118
G1 X80.448 Y334.873 E8.2120
G1 X76.971 Y337.151 E8.3097
G1 X76.966 Y337.154 E8.3099
G1 X76.917 Y337.185 E8.3112
G1 X76.912 Y337.188 E8.3113
G1 X73.377 Y339.376 E8.4091
G1 X73.372 Y339.379 E8.4092
G1 X73.323 Y339.409 E8.4106
G1 X73.318 Y339.411 E8.4107
G1 X68.153 Y342.426 E8.5513
G1 X67.795 Y342.474 E8.5598
G1 X64.218 Y341.508 E8.6469
G1 X63.932 Y341.287 E8.6554
G1 X60.564 Y335.341 E8.8161
G1 X60.564 Y335.341 E8.8161
G1 X57.194 Y329.391 E8.9769
G1 X57.150 Y329.039 E8.9852
G1 X58.097 Y325.527 E9.0708
G1 X58.313 Y325.245 E9.0791
G1 X63.208 Y322.386 E9.2124
G1 X66.427 Y320.391 E9.3015
G1 X69.591 Y318.312 E9.3905
G1 X72.700 Y316.151 E9.4795
G1 X75.751 Y313.907 E9.5686
G1 X78.740 Y311.585 E9.6576
G1 X81.669 Y309.184 E9.7466
G1 X84.532 Y306.707 E9.8356
G1 X87.330 Y304.156 E9.9247
G1 X90.059 Y301.531 E10.0137
G1 X92.717 Y298.836 E10.1027
G1 X95.305 Y296.071 E10.1917
G1 X97.818 Y293.239 E10.2808
G1 X100.255 Y290.342 E10.3698
G1 X102.616 Y287.381 E10.4588
G1 X104.897 Y284.360 E10.5478
G1 X107.013 Y281.399 E10.6334
G1 X107.095 Y281.261 E10.6372
G1 X107.099 Y281.249 E10.6375
G1 X107.102 Y281.237 E10.6378
G1 X107.103 Y281.235 E10.6378
G1 X106.800 Y279.832 E10.6716
G1 X106.796 Y279.811 E10.6721
G1 X106.763 Y279.612 E10.6768
G1 X106.760 Y279.592 E10.6773
G1 X106.612 Y278.384 E10.7059
G1 X106.610 Y278.361 E10.7065
G1 X106.594 Y278.138 E10.7117
G1 X106.593 Y278.115 E10.7122
G1 X106.568 Y276.887 E10.7411
G1 X106.568 Y276.865 E10.7417
G1 X106.574 Y276.641 E10.7469
G1 X106.575 Y276.619 E10.7474
G1 X106.673 Y275.394 E10.7763
G1 X106.675 Y275.372 E10.7769
G1 X106.704 Y275.150 E10.7821
G1 X106.708 Y275.127 E10.7827
G1 X106.928 Y273.919 E10.8115
G1 X106.933 Y273.897 E10.8121
G1 X106.984 Y273.679 E10.8173
G1 X106.989 Y273.657 E10.8179
G1 X107.329 Y272.477 E10.8467
G1 X107.336 Y272.456 E10.8473
G1 X107.409 Y272.244 E10.8525
