; G-Code generated by Simplify3D(R) Version 3.0.2
; Mai 3, 2017 at 5:42:40 
; Settings Summary
;   processName,Process1
;   applyToModels,B-Strebe-003
;   profileName,Default (modified)
;   profileVersion,2015-05-01 08:00:00
;   baseProfile,
;   printMaterial,PLA
;   printQuality,Medium
;   printExtruders,
;   extruderName,Linker Extruder
;   extruderToolheadNumber,1
;   extruderDiameter,0.5
;   extruderAutoWidth,0
;   extruderWidth,0.6
;   extrusionMultiplier,1
;   extruderUseRetract,1
;   extruderRetractionDistance,1
;   extruderExtraRestartDistance,0
;   extruderRetractionZLift,0
;   extruderRetractionSpeed,1800
;   extruderUseCoasting,0
;   extruderCoastingDistance,0.2
;   extruderUseWipe,0
;   extruderWipeDistance,5
;   primaryExtruder,0
;   layerHeight,0.25
;   topSolidLayers,2
;   bottomSolidLayers,2
;   perimeterOutlines,2
;   printPerimetersInsideOut,1
;   startPointOption,2
;   startPointOriginX,0
;   startPointOriginY,0
;   startPointOriginZ,300
;   sequentialIslands,0
;   spiralVaseMode,0
;   firstLayerHeightPercentage,100
;   firstLayerWidthPercentage,100
;   firstLayerUnderspeed,0.5
;   useRaft,0
;   raftExtruder,0
;   raftLayers,3
;   raftOffset,3
;   raftSeparationDistance,0.14
;   raftInfill,85
;   disableRaftBaseLayers,0
;   useSkirt,1
;   skirtExtruder,0
;   skirtLayers,1
;   skirtOutlines,2
;   skirtOffset,4
;   usePrimePillar,0
;   primePillarExtruder,999
;   primePillarWidth,12
;   primePillarLocation,7
;   primePillarSpeedMultiplier,1
;   useOozeShield,0
;   oozeShieldExtruder,999
;   oozeShieldOffset,2
;   oozeShieldOutlines,1
;   oozeShieldSidewallShape,1
;   oozeShieldSidewallAngle,30
;   oozeShieldSpeedMultiplier,1
;   infillExtruder,0
;   internalInfillPattern,Rectilinear
;   externalInfillPattern,Concentric
;   infillPercentage,100
;   outlineOverlapPercentage,24
;   infillExtrusionWidthPercentage,100
;   minInfillLength,5
;   infillLayerInterval,1
;   infillAngles,45,-45
;   overlapInfillAngles,0
;   generateSupport,0
;   supportExtruder,0
;   supportInfillPercentage,30
;   supportExtraInflation,0
;   denseSupportLayers,0
;   denseSupportInfillPercentage,70
;   supportLayerInterval,1
;   supportHorizontalPartOffset,0.3
;   supportUpperSeparationLayers,1
;   supportLowerSeparationLayers,1
;   supportType,0
;   supportGridSpacing,4
;   maxOverhangAngle,45
;   supportAngles,0
;   temperatureName,Linker Extruder,Headbed
;   temperatureNumber,1,0
;   temperatureSetpointCount,1,1
;   temperatureSetpointLayers,1,1
;   temperatureSetpointTemperatures,205,50
;   temperatureStabilizeAtStartup,1,1
;   temperatureHeatedBed,0,1
;   temperatureRelayBetweenLayers,0,0
;   temperatureRelayBetweenLoops,0,0
;   fanLayers,1,2
;   fanSpeeds,0,100
;   blipFanToFullPower,0
;   adjustSpeedForCooling,1
;   minSpeedLayerTime,15
;   minCoolingSpeedSlowdown,20
;   increaseFanForCooling,0
;   minFanLayerTime,45
;   maxCoolingFanSpeed,100
;   increaseFanForBridging,0
;   bridgingFanSpeed,100
;   use5D,1
;   relativeEdistances,0
;   allowEaxisZeroing,1
;   independentExtruderAxes,0
;   includeM10123,0
;   stickySupport,1
;   applyToolheadOffsets,0
;   gcodeXoffset,0
;   gcodeYoffset,0
;   gcodeZoffset,0
;   overrideMachineDefinition,0
;   machineTypeOverride,0
;   strokeXoverride,200
;   strokeYoverride,200
;   strokeZoverride,200
;   originOffsetXoverride,0
;   originOffsetYoverride,0
;   originOffsetZoverride,0
;   homeXdirOverride,-1
;   homeYdirOverride,-1
;   homeZdirOverride,-1
;   flipXoverride,1
;   flipYoverride,-1
;   flipZoverride,1
;   toolheadOffsets,0,0|0,0|0,0|0,0|0,0|0,0
;   overrideFirmwareConfiguration,0
;   firmwareTypeOverride,RepRap (Marlin/Repetier/Sprinter)
;   GPXconfigOverride,r2
;   baudRateOverride,115200
;   overridePrinterModels,0
;   printerModelsOverride
;   startingGcode,G28 ; home all axes
;   layerChangeGcode,
;   retractionGcode,
;   toolChangeGcode,
;   endingGcode,M104 S0 ; turn off extruder,M140 S0 ; turn off bed,M84 ; disable motors
;   createX3G,0
;   celebration,0
;   celebrationSong,Random Song
;   createMB5G,0
;   postProcessing,
;   defaultSpeed,2400
;   outlineUnderspeed,0.7
;   solidInfillUnderspeed,0.8
;   supportUnderspeed,0.8
;   rapidXYspeed,4800
;   rapidZspeed,1002
;   minBridgingArea,50
;   bridgingExtraInflation,0
;   bridgingExtrusionMultiplier,1
;   bridgingSpeedMultiplier,1
;   filamentDiameter,2.85
;   filamentPricePerKg,46
;   filamentDensity,1.25
;   useMinPrintHeight,0
;   minPrintHeight,0
;   useMaxPrintHeight,0
;   maxPrintHeight,0
;   useDiaphragm,0
;   diaphragmLayerInterval,20
;   robustSlicing,1
;   mergeAllIntoSolid,0
;   onlyRetractWhenCrossingOutline,1
;   retractBetweenLayers,1
;   useRetractionMinTravel,0
;   retractionMinTravel,3
;   retractWhileWiping,0
;   onlyWipeOutlines,1
;   avoidCrossingOutline,0
;   maxMovementDetourFactor,3
;   toolChangeRetractionDistance,12
;   toolChangeExtraRestartDistance,-0.5
;   toolChangeRetractionSpeed,600
;   allowThinWallGapFill,1
;   thinWallAllowedOverlapPercentage,10
;   horizontalSizeCompensation,0
G90
M82
M106 S0
M140 S50
M190 S50
M104 S205 T1
M109 S205 T1
G28 ; home all axes
G92 E0
G1 E-1.0000 F1800
G1 Z0.250 F1002
; layer 1, Z = 0.25
T1
; tool H0.250 W0.600
; skirt
G1 X27.823 Y50.737 F4800
G1 E0.0000 F540
G92 E0
G1 X28.154 Y50.600 E0.0084 F1200
G1 X47.053 Y50.600 E0.4528
G1 X47.384 Y50.737 E0.4612
G1 X49.980 Y53.333 E0.5475
G1 X50.117 Y53.664 E0.5560
G1 X50.117 Y57.654 E0.6498
G1 X52.328 Y60.172 E0.7286
G1 X52.332 Y60.176 E0.7287
G1 X52.368 Y60.218 E0.7300
G1 X52.371 Y60.222 E0.7301
G1 X55.721 Y64.231 E0.8530
G1 X55.724 Y64.235 E0.8531
G1 X55.759 Y64.278 E0.8544
G1 X55.762 Y64.282 E0.8545
G1 X59.012 Y68.373 E0.9773
G1 X59.016 Y68.377 E0.9775
G1 X59.049 Y68.420 E0.9788
G1 X59.053 Y68.425 E0.9789
G1 X62.201 Y72.594 E1.1017
G1 X62.204 Y72.599 E1.1019
G1 X62.237 Y72.643 E1.1032
G1 X62.240 Y72.647 E1.1033
G1 X65.285 Y76.893 E1.2261
G1 X65.288 Y76.897 E1.2263
G1 X65.319 Y76.942 E1.2276
G1 X65.322 Y76.947 E1.2277
G1 X68.262 Y81.266 E1.3505
G1 X68.265 Y81.271 E1.3507
G1 X68.295 Y81.316 E1.3519
G1 X68.298 Y81.321 E1.3521
G1 X71.130 Y85.711 E1.4749
G1 X71.133 Y85.716 E1.4750
G1 X71.162 Y85.762 E1.4763
G1 X71.165 Y85.767 E1.4765
G1 X73.888 Y90.226 E1.5993
G1 X73.891 Y90.230 E1.5994
G1 X73.919 Y90.277 E1.6007
G1 X73.922 Y90.282 E1.6009
G1 X76.535 Y94.807 E1.7237
G1 X76.537 Y94.811 E1.7238
G1 X76.564 Y94.859 E1.7251
G1 X76.567 Y94.864 E1.7253
G1 X79.067 Y99.451 E1.8481
G1 X79.070 Y99.456 E1.8482
G1 X79.095 Y99.505 E1.8495
G1 X79.098 Y99.509 E1.8496
G1 X81.485 Y104.157 E1.9725
G1 X81.487 Y104.162 E1.9726
G1 X81.512 Y104.211 E1.9739
G1 X81.514 Y104.216 E1.9740
G1 X83.786 Y108.921 E2.0969
G1 X83.788 Y108.926 E2.0970
G1 X83.811 Y108.975 E2.0983
G1 X83.814 Y108.980 E2.0984
G1 X85.969 Y113.740 E2.2213
G1 X85.971 Y113.745 E2.2214
G1 X85.993 Y113.795 E2.2227
G1 X85.995 Y113.800 E2.2228
G1 X88.032 Y118.611 E2.3457
G1 X88.035 Y118.616 E2.3458
G1 X88.055 Y118.667 E2.3471
G1 X88.057 Y118.672 E2.3472
G1 X89.976 Y123.531 E2.4701
G1 X89.978 Y123.536 E2.4702
G1 X89.997 Y123.588 E2.4715
G1 X89.999 Y123.593 E2.4716
G1 X91.797 Y128.498 E2.5945
G1 X91.799 Y128.503 E2.5946
G1 X91.817 Y128.555 E2.5959
G1 X91.819 Y128.560 E2.5960
G1 X93.496 Y133.508 E2.7188
G1 X93.497 Y133.514 E2.7190
G1 X93.514 Y133.566 E2.7203
G1 X93.516 Y133.571 E2.7204
G1 X95.071 Y138.559 E2.8432
G1 X95.072 Y138.564 E2.8434
G1 X95.088 Y138.617 E2.8447
G1 X95.089 Y138.622 E2.8448
G1 X96.521 Y143.647 E2.9676
G1 X96.522 Y143.652 E2.9678
G1 X96.536 Y143.705 E2.9690
G1 X96.538 Y143.710 E2.9692
G1 X97.845 Y148.768 E3.0920
G1 X97.846 Y148.774 E3.0922
G1 X97.859 Y148.827 E3.0934
G1 X97.861 Y148.832 E3.0936
G1 X99.043 Y153.921 E3.2164
G1 X99.044 Y153.927 E3.2165
G1 X99.056 Y153.980 E3.2178
G1 X99.057 Y153.986 E3.2180
G1 X100.113 Y159.102 E3.3408
G1 X100.115 Y159.108 E3.3409
G1 X100.125 Y159.161 E3.3422
G1 X100.126 Y159.167 E3.3424
G1 X101.056 Y164.308 E3.4652
G1 X101.057 Y164.313 E3.4653
G1 X101.066 Y164.367 E3.4666
G1 X101.067 Y164.373 E3.4667
G1 X101.871 Y169.535 E3.5896
G1 X101.871 Y169.541 E3.5897
G1 X101.879 Y169.595 E3.5910
G1 X101.880 Y169.600 E3.5911
G1 X102.556 Y174.781 E3.7140
G1 X102.557 Y174.786 E3.7141
G1 X102.563 Y174.841 E3.7154
G1 X102.564 Y174.846 E3.7155
G1 X103.112 Y180.042 E3.8384
G1 X103.113 Y180.047 E3.8385
G1 X103.118 Y180.102 E3.8398
G1 X103.118 Y180.107 E3.8399
G1 X103.528 Y185.187 E3.9597
G1 X103.614 Y185.890 E3.9764
G1 X103.739 Y186.421 E3.9892
G1 X103.919 Y186.937 E4.0021
G1 X104.154 Y187.431 E4.0149
G1 X104.440 Y187.896 E4.0278
G1 X104.774 Y188.328 E4.0406
G1 X105.153 Y188.722 E4.0535
G1 X105.571 Y189.073 E4.0663
G1 X106.025 Y189.377 E4.0792
G1 X106.509 Y189.631 E4.0920
G1 X107.017 Y189.831 E4.1049
G1 X107.544 Y189.976 E4.1177
G1 X108.084 Y190.064 E4.1306
G1 X108.761 Y190.100 E4.1465
G1 X181.977 Y190.100 E5.8680
G1 X182.308 Y190.237 E5.8765
G1 X184.904 Y192.833 E5.9628
G1 X185.041 Y193.164 E5.9712
G1 X185.041 Y206.836 E6.2927
G1 X184.904 Y207.167 E6.3011
G1 X182.308 Y209.763 E6.3874
G1 X181.977 Y209.900 E6.3959
G1 X108.760 Y209.900 E8.1174
G1 X108.084 Y209.936 E8.1333
G1 X107.544 Y210.024 E8.1462
G1 X107.017 Y210.169 E8.1590
G1 X106.509 Y210.369 E8.1719
G1 X106.025 Y210.623 E8.1847
G1 X105.571 Y210.927 E8.1976
G1 X105.153 Y211.278 E8.2104
G1 X104.774 Y211.672 E8.2233
G1 X104.440 Y212.104 E8.2361
G1 X104.154 Y212.569 E8.2490
G1 X103.919 Y213.063 E8.2618
G1 X103.739 Y213.578 E8.2747
G1 X103.614 Y214.110 E8.2875
G1 X103.528 Y214.813 E8.3041
G1 X103.126 Y219.807 E8.4220
G1 X103.126 Y219.813 E8.4221
G1 X103.121 Y219.867 E8.4234
G1 X103.120 Y219.872 E8.4235
G1 X102.584 Y224.983 E8.5443
G1 X102.583 Y224.989 E8.5445
G1 X102.577 Y225.042 E8.5457
G1 X102.576 Y225.048 E8.5459
G1 X101.916 Y230.145 E8.6667
G1 X101.915 Y230.150 E8.6668
G1 X101.908 Y230.204 E8.6681
G1 X101.907 Y230.209 E8.6682
G1 X101.124 Y235.288 E8.7891
G1 X101.123 Y235.294 E8.7892
G1 X101.114 Y235.347 E8.7905
G1 X101.113 Y235.352 E8.7906
G1 X100.207 Y240.411 E8.9114
G1 X100.206 Y240.417 E8.9116
G1 X100.196 Y240.470 E8.9128
G1 X100.195 Y240.475 E8.9130
G1 X99.167 Y245.511 E9.0338
G1 X99.166 Y245.516 E9.0339
G1 X99.154 Y245.569 E9.0352
G1 X99.153 Y245.574 E9.0353
G1 X98.003 Y250.583 E9.1562
G1 X98.002 Y250.588 E9.1563
G1 X97.989 Y250.641 E9.1576
G1 X97.988 Y250.646 E9.1577
G1 X96.717 Y255.626 E9.2785
G1 X96.716 Y255.631 E9.2787
G1 X96.702 Y255.683 E9.2799
G1 X96.700 Y255.689 E9.2801
G1 X95.309 Y260.636 E9.4009
G1 X95.307 Y260.642 E9.4010
G1 X95.292 Y260.693 E9.4023
G1 X95.291 Y260.698 E9.4024
G1 X93.780 Y265.611 E9.5233
G1 X93.779 Y265.616 E9.5234
G1 X93.762 Y265.667 E9.5247
G1 X93.760 Y265.673 E9.5248
G1 X92.131 Y270.547 E9.6457
G1 X92.130 Y270.552 E9.6458
G1 X92.112 Y270.603 E9.6471
G1 X92.110 Y270.608 E9.6472
G1 X90.364 Y275.442 E9.7680
G1 X90.362 Y275.447 E9.7682
G1 X90.343 Y275.497 E9.7694
G1 X90.341 Y275.503 E9.7696
G1 X88.478 Y280.293 E9.8904
G1 X88.476 Y280.298 E9.8905
G1 X88.456 Y280.348 E9.8918
G1 X88.453 Y280.353 E9.8919
G1 X86.475 Y285.096 E10.0128
G1 X86.473 Y285.101 E10.0129
G1 X86.451 Y285.150 E10.0142
G1 X86.449 Y285.155 E10.0143
G1 X84.356 Y289.850 E10.1351
G1 X84.354 Y289.855 E10.1353
G1 X84.332 Y289.904 E10.1365
G1 X84.329 Y289.908 E10.1367
G1 X82.123 Y294.551 E10.2575
G1 X82.121 Y294.555 E10.2576
G1 X82.097 Y294.604 E10.2589
G1 X82.095 Y294.609 E10.2590
G1 X79.777 Y299.196 E10.3799
G1 X79.775 Y299.201 E10.3800
G1 X79.750 Y299.249 E10.3813
G1 X79.747 Y299.253 E10.3814
G1 X77.319 Y303.783 E10.5022
G1 X77.317 Y303.788 E10.5024
G1 X77.291 Y303.835 E10.5036
G1 X77.288 Y303.840 E10.5038
G1 X74.751 Y308.310 E10.6246
G1 X74.748 Y308.315 E10.6247
G1 X74.721 Y308.361 E10.6260
G1 X74.718 Y308.366 E10.6261
G1 X72.074 Y312.772 E10.7470
G1 X72.071 Y312.777 E10.7471
G1 X72.043 Y312.823 E10.7484
G1 X72.040 Y312.828 E10.7485
G1 X69.289 Y317.169 E10.8694
G1 X69.286 Y317.174 E10.8695
G1 X69.257 Y317.219 E10.8708
G1 X69.254 Y317.224 E10.8709
G1 X66.399 Y321.497 E10.9917
G1 X66.396 Y321.502 E10.9919
G1 X66.365 Y321.546 E10.9931
G1 X66.362 Y321.551 E10.9932
G1 X63.405 Y325.754 E11.1141
G1 X63.402 Y325.758 E11.1142
G1 X63.370 Y325.802 E11.1155
G1 X63.367 Y325.807 E11.1156
G1 X60.309 Y329.937 E11.2365
G1 X60.305 Y329.941 E11.2366
G1 X60.273 Y329.984 E11.2379
G1 X60.269 Y329.989 E11.2380
G1 X57.112 Y334.044 E11.3588
G1 X57.109 Y334.048 E11.3590
G1 X57.075 Y334.090 E11.3602
G1 X57.072 Y334.094 E11.3604
G1 X53.817 Y338.072 E11.4812
G1 X53.813 Y338.076 E11.4813
G1 X53.779 Y338.118 E11.4826
G1 X53.775 Y338.122 E11.4827
G1 X50.382 Y342.069 E11.6051
G1 X50.370 Y342.083 E11.6055
G1 X50.244 Y342.217 E11.6099
G1 X50.231 Y342.231 E11.6103
G1 X50.117 Y342.343 E11.6141
G1 X50.117 Y346.336 E11.7080
G1 X49.980 Y346.667 E11.7164
G1 X47.384 Y349.263 E11.8027
G1 X47.053 Y349.400 E11.8111
G1 X28.023 Y349.400 E12.2586
G1 X27.692 Y349.263 E12.2670
G1 X25.096 Y346.667 E12.3533
G1 X24.959 Y346.336 E12.3618
G1 X24.959 Y338.403 E12.5483
G1 X24.959 Y338.383 E12.5488
G1 X24.968 Y338.189 E12.5533
G1 X24.969 Y338.170 E12.5538
G1 X25.055 Y337.185 E12.5770
G1 X25.060 Y337.146 E12.5780
G1 X25.128 Y336.763 E12.5871
G1 X25.136 Y336.725 E12.5880
G1 X25.417 Y335.676 E12.6135
G1 X25.429 Y335.639 E12.6145
G1 X25.562 Y335.273 E12.6236
G1 X25.577 Y335.237 E12.6245
G1 X26.036 Y334.253 E12.6501
G1 X26.054 Y334.218 E12.6510
G1 X26.248 Y333.882 E12.6601
G1 X26.270 Y333.849 E12.6610
G1 X26.892 Y332.959 E12.6866
G1 X26.916 Y332.928 E12.6875
G1 X27.166 Y332.630 E12.6966
G1 X27.193 Y332.601 E12.6976
G1 X27.960 Y331.834 E12.7231
G1 X27.989 Y331.807 E12.7240
G1 X28.287 Y331.557 E12.7331
G1 X28.318 Y331.533 E12.7341
G1 X29.208 Y330.911 E12.7596
G1 X29.241 Y330.889 E12.7605
G1 X29.577 Y330.695 E12.7697
G1 X29.612 Y330.677 E12.7706
G1 X30.596 Y330.218 E12.7961
G1 X30.632 Y330.203 E12.7970
G1 X30.998 Y330.070 E12.8062
G1 X31.035 Y330.058 E12.8071
G1 X32.084 Y329.777 E12.8326
G1 X32.122 Y329.769 E12.8336
G1 X32.505 Y329.702 E12.8427
G1 X32.544 Y329.696 E12.8436
G1 X33.529 Y329.610 E12.8669
G1 X33.548 Y329.609 E12.8673
G1 X33.742 Y329.600 E12.8719
G1 X33.762 Y329.600 E12.8723
G1 X34.969 Y329.600 E12.9007
G1 X37.925 Y326.203 E13.0066
G1 X41.049 Y322.425 E13.1219
G1 X44.076 Y318.571 E13.2371
G1 X47.006 Y314.641 E13.3524
G1 X49.836 Y310.639 E13.4676
G1 X52.565 Y306.567 E13.5829
G1 X55.190 Y302.429 E13.6981
G1 X57.711 Y298.225 E13.8134
G1 X60.125 Y293.959 E13.9286
G1 X62.432 Y289.634 E14.0439
G1 X64.628 Y285.253 E14.1591
G1 X66.715 Y280.817 E14.2744
G1 X68.689 Y276.331 E14.3896
G1 X70.550 Y271.796 E14.5049
G1 X72.296 Y267.216 E14.6201
G1 X73.927 Y262.594 E14.7354
G1 X75.441 Y257.933 E14.8506
G1 X76.838 Y253.234 E14.9659
G1 X78.116 Y248.502 E15.0811
G1 X79.274 Y243.740 E15.1964
G1 X80.313 Y238.949 E15.3116
G1 X81.231 Y234.135 E15.4269
G1 X82.028 Y229.298 E15.5421
G1 X82.703 Y224.444 E15.6574
G1 X83.256 Y219.574 E15.7726
G1 X83.687 Y214.691 E15.8879
G1 X83.994 Y209.799 E16.0031
G1 X84.179 Y204.901 E16.1184
G1 X84.241 Y200.000 E16.2336
G1 X84.179 Y195.099 E16.3489
G1 X83.994 Y190.201 E16.4641
G1 X83.687 Y185.309 E16.5794
G1 X83.256 Y180.426 E16.6946
G1 X82.703 Y175.556 E16.8099
G1 X82.028 Y170.702 E16.9251
G1 X81.231 Y165.865 E17.0404
G1 X80.313 Y161.051 E17.1556
G1 X79.274 Y156.260 E17.2709
G1 X78.116 Y151.498 E17.3861
G1 X76.838 Y146.766 E17.5014
G1 X75.441 Y142.067 E17.6166
G1 X73.927 Y137.406 E17.7319
G1 X72.296 Y132.784 E17.8471
G1 X70.550 Y128.204 E17.9624
G1 X68.689 Y123.669 E18.0776
G1 X66.715 Y119.182 E18.1929
G1 X64.628 Y114.747 E18.3081
G1 X62.432 Y110.366 E18.4234
G1 X60.125 Y106.041 E18.5386
G1 X57.711 Y101.775 E18.6539
G1 X55.190 Y97.572 E18.7691
G1 X52.565 Y93.433 E18.8844
G1 X49.836 Y89.361 E18.9996
G1 X47.006 Y85.359 E19.1149
G1 X44.076 Y81.429 E19.2301
G1 X41.049 Y77.575 E19.3454
G1 X37.925 Y73.797 E19.4606
G1 X34.969 Y70.400 E19.5665
G1 X33.893 Y70.400 E19.5918
G1 X33.873 Y70.400 E19.5923
G1 X33.679 Y70.391 E19.5968
G1 X33.660 Y70.390 E19.5973
G1 X32.675 Y70.304 E19.6205
G1 X32.636 Y70.299 E19.6215
G1 X32.253 Y70.231 E19.6306
G1 X32.215 Y70.223 E19.6315
G1 X31.166 Y69.942 E19.6571
G1 X31.129 Y69.930 E19.6580
G1 X30.764 Y69.797 E19.6671
G1 X30.727 Y69.782 E19.6680
G1 X29.743 Y69.323 E19.6936
