; G-Code generated by Simplify3D(R) Version 3.0.2
; Mai 3, 2017 at 5:50:53 
; Settings Summary
;   processName,Process1
;   applyToModels,B-Strebe-005
;   profileName,Default (modified)
;   profileVersion,2015-05-01 08:00:00
;   baseProfile,
;   printMaterial,PLA
;   printQuality,Medium
;   printExtruders,
;   extruderName,Linker Extruder
;   extruderToolheadNumber,1
;   extruderDiameter,0.5
;   extruderAutoWidth,0
;   extruderWidth,0.6
;   extrusionMultiplier,1
;   extruderUseRetract,1
;   extruderRetractionDistance,1
;   extruderExtraRestartDistance,0
;   extruderRetractionZLift,0
;   extruderRetractionSpeed,1800
;   extruderUseCoasting,0
;   extruderCoastingDistance,0.2
;   extruderUseWipe,0
;   extruderWipeDistance,5
;   primaryExtruder,0
;   layerHeight,0.25
;   topSolidLayers,2
;   bottomSolidLayers,2
;   perimeterOutlines,2
;   printPerimetersInsideOut,1
;   startPointOption,2
;   startPointOriginX,0
;   startPointOriginY,0
;   startPointOriginZ,300
;   sequentialIslands,0
;   spiralVaseMode,0
;   firstLayerHeightPercentage,100
;   firstLayerWidthPercentage,100
;   firstLayerUnderspeed,0.5
;   useRaft,0
;   raftExtruder,0
;   raftLayers,3
;   raftOffset,3
;   raftSeparationDistance,0.14
;   raftInfill,85
;   disableRaftBaseLayers,0
;   useSkirt,1
;   skirtExtruder,0
;   skirtLayers,1
;   skirtOutlines,2
;   skirtOffset,4
;   usePrimePillar,0
;   primePillarExtruder,999
;   primePillarWidth,12
;   primePillarLocation,7
;   primePillarSpeedMultiplier,1
;   useOozeShield,0
;   oozeShieldExtruder,999
;   oozeShieldOffset,2
;   oozeShieldOutlines,1
;   oozeShieldSidewallShape,1
;   oozeShieldSidewallAngle,30
;   oozeShieldSpeedMultiplier,1
;   infillExtruder,0
;   internalInfillPattern,Rectilinear
;   externalInfillPattern,Concentric
;   infillPercentage,100
;   outlineOverlapPercentage,24
;   infillExtrusionWidthPercentage,100
;   minInfillLength,5
;   infillLayerInterval,1
;   infillAngles,45,-45
;   overlapInfillAngles,0
;   generateSupport,0
;   supportExtruder,0
;   supportInfillPercentage,30
;   supportExtraInflation,0
;   denseSupportLayers,0
;   denseSupportInfillPercentage,70
;   supportLayerInterval,1
;   supportHorizontalPartOffset,0.3
;   supportUpperSeparationLayers,1
;   supportLowerSeparationLayers,1
;   supportType,0
;   supportGridSpacing,4
;   maxOverhangAngle,45
;   supportAngles,0
;   temperatureName,Linker Extruder,Headbed
;   temperatureNumber,1,0
;   temperatureSetpointCount,1,1
;   temperatureSetpointLayers,1,1
;   temperatureSetpointTemperatures,205,50
;   temperatureStabilizeAtStartup,1,1
;   temperatureHeatedBed,0,1
;   temperatureRelayBetweenLayers,0,0
;   temperatureRelayBetweenLoops,0,0
;   fanLayers,1,2
;   fanSpeeds,0,100
;   blipFanToFullPower,0
;   adjustSpeedForCooling,1
;   minSpeedLayerTime,15
;   minCoolingSpeedSlowdown,20
;   increaseFanForCooling,0
;   minFanLayerTime,45
;   maxCoolingFanSpeed,100
;   increaseFanForBridging,0
;   bridgingFanSpeed,100
;   use5D,1
;   relativeEdistances,0
;   allowEaxisZeroing,1
;   independentExtruderAxes,0
;   includeM10123,0
;   stickySupport,1
;   applyToolheadOffsets,0
;   gcodeXoffset,0
;   gcodeYoffset,0
;   gcodeZoffset,0
;   overrideMachineDefinition,0
;   machineTypeOverride,0
;   strokeXoverride,200
;   strokeYoverride,200
;   strokeZoverride,200
;   originOffsetXoverride,0
;   originOffsetYoverride,0
;   originOffsetZoverride,0
;   homeXdirOverride,-1
;   homeYdirOverride,-1
;   homeZdirOverride,-1
;   flipXoverride,1
;   flipYoverride,-1
;   flipZoverride,1
;   toolheadOffsets,0,0|0,0|0,0|0,0|0,0|0,0
;   overrideFirmwareConfiguration,0
;   firmwareTypeOverride,RepRap (Marlin/Repetier/Sprinter)
;   GPXconfigOverride,r2
;   baudRateOverride,115200
;   overridePrinterModels,0
;   printerModelsOverride
;   startingGcode,G28 ; home all axes
;   layerChangeGcode,
;   retractionGcode,
;   toolChangeGcode,
;   endingGcode,M104 S0 ; turn off extruder,M140 S0 ; turn off bed,M84 ; disable motors
;   createX3G,0
;   celebration,0
;   celebrationSong,Random Song
;   createMB5G,0
;   postProcessing,
;   defaultSpeed,2400
;   outlineUnderspeed,0.7
;   solidInfillUnderspeed,0.8
;   supportUnderspeed,0.8
;   rapidXYspeed,4800
;   rapidZspeed,1002
;   minBridgingArea,50
;   bridgingExtraInflation,0
;   bridgingExtrusionMultiplier,1
;   bridgingSpeedMultiplier,1
;   filamentDiameter,2.85
;   filamentPricePerKg,46
;   filamentDensity,1.25
;   useMinPrintHeight,0
;   minPrintHeight,0
;   useMaxPrintHeight,0
;   maxPrintHeight,0
;   useDiaphragm,0
;   diaphragmLayerInterval,20
;   robustSlicing,1
;   mergeAllIntoSolid,0
;   onlyRetractWhenCrossingOutline,1
;   retractBetweenLayers,1
;   useRetractionMinTravel,0
;   retractionMinTravel,3
;   retractWhileWiping,0
;   onlyWipeOutlines,1
;   avoidCrossingOutline,0
;   maxMovementDetourFactor,3
;   toolChangeRetractionDistance,12
;   toolChangeExtraRestartDistance,-0.5
;   toolChangeRetractionSpeed,600
;   allowThinWallGapFill,1
;   thinWallAllowedOverlapPercentage,10
;   horizontalSizeCompensation,0
G90
M82
M106 S0
M140 S50
M190 S50
M104 S205 T1
M109 S205 T1
G28 ; home all axes
G92 E0
G1 E-1.0000 F1800
G1 Z0.250 F1002
; layer 1, Z = 0.25
T1
; tool H0.250 W0.600
; skirt
G1 X23.741 Y53.664 F4800
G1 E0.0000 F540
G92 E0
G1 X23.878 Y53.333 E0.0084 F1200
G1 X26.474 Y50.737 E0.0948
G1 X26.805 Y50.600 E0.1032
G1 X45.079 Y50.600 E0.5329
G1 X45.410 Y50.737 E0.5413
G1 X48.006 Y53.333 E0.6276
G1 X48.143 Y53.664 E0.6360
G1 X48.143 Y57.654 E0.7298
G1 X50.355 Y60.172 E0.8086
G1 X50.358 Y60.176 E0.8088
G1 X50.394 Y60.218 E0.8100
G1 X50.397 Y60.222 E0.8102
G1 X53.747 Y64.231 E0.9330
G1 X53.751 Y64.235 E0.9331
G1 X53.785 Y64.278 E0.9344
G1 X53.789 Y64.282 E0.9346
G1 X57.039 Y68.373 E1.0574
G1 X57.042 Y68.377 E1.0575
G1 X57.076 Y68.420 E1.0588
G1 X57.079 Y68.425 E1.0590
G1 X60.227 Y72.594 E1.1818
G1 X60.231 Y72.599 E1.1819
G1 X60.263 Y72.643 E1.1832
G1 X60.266 Y72.647 E1.1834
G1 X63.311 Y76.893 E1.3062
G1 X63.314 Y76.897 E1.3063
G1 X63.346 Y76.942 E1.3076
G1 X63.349 Y76.947 E1.3077
G1 X66.288 Y81.266 E1.4306
G1 X66.291 Y81.271 E1.4307
G1 X66.321 Y81.316 E1.4320
G1 X66.324 Y81.321 E1.4321
G1 X69.156 Y85.711 E1.5550
G1 X69.159 Y85.716 E1.5551
G1 X69.189 Y85.762 E1.5564
G1 X69.191 Y85.767 E1.5565
G1 X71.915 Y90.226 E1.6794
G1 X71.917 Y90.230 E1.6795
G1 X71.945 Y90.277 E1.6808
G1 X71.948 Y90.282 E1.6809
G1 X74.561 Y94.807 E1.8038
G1 X74.564 Y94.811 E1.8039
G1 X74.590 Y94.859 E1.8052
G1 X74.593 Y94.864 E1.8053
G1 X77.093 Y99.451 E1.9282
G1 X77.096 Y99.456 E1.9283
G1 X77.122 Y99.505 E1.9296
G1 X77.124 Y99.509 E1.9297
G1 X79.511 Y104.157 E2.0526
G1 X79.513 Y104.162 E2.0527
G1 X79.538 Y104.211 E2.0540
G1 X79.540 Y104.216 E2.0541
G1 X81.812 Y108.921 E2.1769
G1 X81.814 Y108.926 E2.1771
G1 X81.838 Y108.975 E2.1784
G1 X81.840 Y108.980 E2.1785
G1 X83.995 Y113.740 E2.3013
G1 X83.997 Y113.745 E2.3015
G1 X84.019 Y113.795 E2.3028
G1 X84.021 Y113.800 E2.3029
G1 X86.059 Y118.611 E2.4257
G1 X86.061 Y118.616 E2.4259
G1 X86.082 Y118.667 E2.4272
G1 X86.084 Y118.672 E2.4273
G1 X88.002 Y123.531 E2.5501
G1 X88.004 Y123.536 E2.5503
G1 X88.023 Y123.588 E2.5515
G1 X88.025 Y123.593 E2.5517
G1 X89.823 Y128.498 E2.6745
G1 X89.825 Y128.503 E2.6746
G1 X89.843 Y128.555 E2.6759
G1 X89.845 Y128.560 E2.6761
G1 X91.522 Y133.508 E2.7989
G1 X91.524 Y133.513 E2.7990
G1 X91.541 Y133.566 E2.8003
G1 X91.542 Y133.571 E2.8005
G1 X93.097 Y138.559 E2.9233
G1 X93.098 Y138.564 E2.9234
G1 X93.114 Y138.617 E2.9247
G1 X93.116 Y138.622 E2.9249
G1 X94.547 Y143.647 E3.0477
G1 X94.548 Y143.652 E3.0478
G1 X94.563 Y143.705 E3.0491
G1 X94.564 Y143.710 E3.0492
G1 X95.871 Y148.768 E3.1721
G1 X95.873 Y148.774 E3.1722
G1 X95.886 Y148.827 E3.1735
G1 X95.887 Y148.832 E3.1736
G1 X97.069 Y153.921 E3.2965
G1 X97.070 Y153.927 E3.2966
G1 X97.082 Y153.980 E3.2979
G1 X97.083 Y153.986 E3.2980
G1 X98.140 Y159.102 E3.4209
G1 X98.141 Y159.108 E3.4210
G1 X98.151 Y159.161 E3.4223
G1 X98.152 Y159.167 E3.4224
G1 X99.083 Y164.308 E3.5453
G1 X99.083 Y164.313 E3.5454
G1 X99.093 Y164.367 E3.5467
G1 X99.093 Y164.373 E3.5468
G1 X99.897 Y169.535 E3.6697
G1 X99.898 Y169.540 E3.6698
G1 X99.905 Y169.595 E3.6711
G1 X99.906 Y169.600 E3.6712
G1 X100.582 Y174.781 E3.7940
G1 X100.583 Y174.786 E3.7942
G1 X100.589 Y174.841 E3.7955
G1 X100.590 Y174.846 E3.7956
G1 X101.138 Y180.042 E3.9184
G1 X101.139 Y180.047 E3.9186
G1 X101.144 Y180.102 E3.9199
G1 X101.145 Y180.107 E3.9200
G1 X101.555 Y185.187 E4.0398
G1 X101.641 Y185.890 E4.0565
G1 X101.765 Y186.421 E4.0693
G1 X101.945 Y186.937 E4.0822
G1 X102.180 Y187.431 E4.0950
G1 X102.466 Y187.896 E4.1078
G1 X102.800 Y188.328 E4.1207
G1 X103.179 Y188.722 E4.1335
G1 X103.598 Y189.073 E4.1464
G1 X104.052 Y189.377 E4.1592
G1 X104.535 Y189.631 E4.1721
G1 X105.044 Y189.831 E4.1849
G1 X105.571 Y189.976 E4.1978
G1 X106.110 Y190.064 E4.2106
G1 X106.787 Y190.100 E4.2266
G1 X116.265 Y190.100 E4.4494
G1 X116.926 Y190.065 E4.4650
G1 X117.453 Y189.982 E4.4775
G1 X117.968 Y189.844 E4.4901
G1 X118.465 Y189.653 E4.5026
G1 X118.940 Y189.411 E4.5151
G1 X119.388 Y189.120 E4.5277
G1 X119.802 Y188.785 E4.5402
G1 X120.179 Y188.408 E4.5527
G1 X120.514 Y187.994 E4.5653
G1 X120.875 Y187.439 E4.5808
G1 X166.295 Y108.769 E6.7168
G1 X166.462 Y108.602 E6.7223
G1 X168.524 Y107.411 E6.7783
G1 X168.753 Y107.350 E6.7839
G1 X184.041 Y107.350 E7.1433
G1 X184.458 Y107.591 E7.1547
G1 X187.009 Y112.009 E7.2746
G1 X187.009 Y112.491 E7.2860
G1 X142.387 Y189.779 E9.3844
G1 X142.296 Y189.970 E9.3894
G1 X142.292 Y189.983 E9.3897
G1 X142.291 Y189.997 E9.3900
G1 X142.291 Y190.010 E9.3903
G1 X142.294 Y190.023 E9.3906
G1 X142.299 Y190.036 E9.3910
G1 X142.305 Y190.048 E9.3913
G1 X142.314 Y190.058 E9.3916
G1 X142.324 Y190.067 E9.3919
G1 X142.335 Y190.074 E9.3922
G1 X142.348 Y190.080 E9.3926
G1 X142.361 Y190.083 E9.3929
G1 X142.572 Y190.100 E9.3978
G1 X180.003 Y190.100 E10.2780
G1 X180.334 Y190.237 E10.2864
G1 X182.930 Y192.833 E10.3727
G1 X183.067 Y193.164 E10.3811
G1 X183.067 Y206.836 E10.7026
G1 X182.930 Y207.167 E10.7110
G1 X180.334 Y209.763 E10.7974
G1 X180.003 Y209.900 E10.8058
G1 X142.572 Y209.900 E11.6859
G1 X142.361 Y209.917 E11.6909
G1 X142.348 Y209.920 E11.6912
G1 X142.335 Y209.926 E11.6915
G1 X142.324 Y209.933 E11.6918
G1 X142.314 Y209.942 E11.6922
G1 X142.305 Y209.952 E11.6925
G1 X142.299 Y209.964 E11.6928
G1 X142.294 Y209.977 E11.6931
G1 X142.291 Y209.990 E11.6934
G1 X142.291 Y210.003 E11.6937
G1 X142.292 Y210.017 E11.6941
G1 X142.296 Y210.030 E11.6944
G1 X142.387 Y210.221 E11.6994
G1 X187.009 Y287.509 E13.7978
G1 X187.009 Y287.991 E13.8091
G1 X184.458 Y292.409 E13.9291
G1 X184.041 Y292.650 E13.9404
G1 X168.753 Y292.650 E14.2999
G1 X168.524 Y292.589 E14.3054
G1 X166.462 Y291.398 E14.3614
G1 X166.295 Y291.231 E14.3670
G1 X120.875 Y212.561 E16.5029
G1 X120.514 Y212.006 E16.5185
G1 X120.179 Y211.592 E16.5310
G1 X119.802 Y211.215 E16.5436
G1 X119.388 Y210.879 E16.5561
G1 X118.940 Y210.589 E16.5686
G1 X118.465 Y210.347 E16.5812
G1 X117.968 Y210.156 E16.5937
G1 X117.453 Y210.018 E16.6062
G1 X116.926 Y209.935 E16.6188
G1 X116.265 Y209.900 E16.6343
G1 X106.787 Y209.900 E16.8572
G1 X106.110 Y209.936 E16.8731
G1 X105.571 Y210.024 E16.8860
G1 X105.044 Y210.169 E16.8988
G1 X104.535 Y210.369 E16.9117
G1 X104.052 Y210.623 E16.9245
G1 X103.598 Y210.927 E16.9374
G1 X103.179 Y211.278 E16.9502
G1 X102.800 Y211.672 E16.9631
G1 X102.466 Y212.104 E16.9759
G1 X102.180 Y212.569 E16.9888
G1 X101.945 Y213.063 E17.0016
G1 X101.765 Y213.578 E17.0144
G1 X101.641 Y214.110 E17.0273
G1 X101.555 Y214.813 E17.0439
G1 X101.145 Y219.893 E17.1638
G1 X101.144 Y219.898 E17.1639
G1 X101.139 Y219.953 E17.1652
G1 X101.138 Y219.958 E17.1653
G1 X100.590 Y225.154 E17.2882
G1 X100.589 Y225.159 E17.2883
G1 X100.583 Y225.214 E17.2896
G1 X100.582 Y225.219 E17.2897
G1 X99.906 Y230.400 E17.4125
G1 X99.905 Y230.405 E17.4127
G1 X99.898 Y230.460 E17.4140
G1 X99.897 Y230.465 E17.4141
G1 X99.093 Y235.627 E17.5369
G1 X99.093 Y235.633 E17.5371
G1 X99.083 Y235.687 E17.5384
G1 X99.083 Y235.692 E17.5385
G1 X98.152 Y240.833 E17.6613
G1 X98.151 Y240.839 E17.6615
G1 X98.141 Y240.892 E17.6627
G1 X98.140 Y240.898 E17.6629
G1 X97.083 Y246.014 E17.7857
G1 X97.082 Y246.020 E17.7859
G1 X97.070 Y246.073 E17.7871
G1 X97.069 Y246.079 E17.7873
G1 X95.887 Y251.168 E17.9101
G1 X95.886 Y251.173 E17.9102
G1 X95.873 Y251.226 E17.9115
G1 X95.871 Y251.232 E17.9117
G1 X94.564 Y256.290 E18.0345
G1 X94.563 Y256.295 E18.0346
G1 X94.548 Y256.348 E18.0359
G1 X94.547 Y256.353 E18.0361
G1 X93.116 Y261.378 E18.1589
G1 X93.114 Y261.383 E18.1590
G1 X93.098 Y261.436 E18.1603
G1 X93.097 Y261.441 E18.1604
G1 X91.542 Y266.429 E18.2833
G1 X91.541 Y266.434 E18.2834
G1 X91.524 Y266.486 E18.2847
G1 X91.522 Y266.492 E18.2848
G1 X89.845 Y271.440 E18.4077
G1 X89.843 Y271.445 E18.4078
G1 X89.825 Y271.497 E18.4091
G1 X89.823 Y271.502 E18.4092
G1 X88.025 Y276.407 E18.5321
G1 X88.023 Y276.412 E18.5322
G1 X88.004 Y276.464 E18.5335
G1 X88.002 Y276.469 E18.5336
G1 X86.084 Y281.328 E18.6565
G1 X86.082 Y281.333 E18.6566
G1 X86.061 Y281.384 E18.6579
G1 X86.059 Y281.389 E18.6580
G1 X84.021 Y286.200 E18.7809
G1 X84.019 Y286.205 E18.7810
G1 X83.997 Y286.255 E18.7823
G1 X83.995 Y286.260 E18.7824
G1 X81.840 Y291.020 E18.9053
G1 X81.838 Y291.025 E18.9054
G1 X81.814 Y291.074 E18.9067
G1 X81.812 Y291.079 E18.9068
G1 X79.540 Y295.784 E19.0296
G1 X79.538 Y295.789 E19.0298
G1 X79.513 Y295.838 E19.0311
G1 X79.511 Y295.843 E19.0312
G1 X77.124 Y300.491 E19.1540
G1 X77.122 Y300.495 E19.1542
G1 X77.096 Y300.544 E19.1555
G1 X77.093 Y300.549 E19.1556
G1 X74.593 Y305.136 E19.2784
G1 X74.590 Y305.141 E19.2786
G1 X74.564 Y305.189 E19.2798
G1 X74.561 Y305.193 E19.2800
G1 X71.948 Y309.718 E19.4028
G1 X71.946 Y309.722 E19.4030
G1 X71.918 Y309.770 E19.4042
G1 X71.915 Y309.774 E19.4044
G1 X69.191 Y314.233 E19.5272
G1 X69.189 Y314.238 E19.5273
G1 X69.159 Y314.284 E19.5286
G1 X69.156 Y314.289 E19.5288
G1 X66.324 Y318.679 E19.6516
G1 X66.321 Y318.684 E19.6517
G1 X66.291 Y318.729 E19.6530
G1 X66.288 Y318.734 E19.6532
G1 X63.349 Y323.053 E19.7760
G1 X63.346 Y323.058 E19.7761
G1 X63.314 Y323.103 E19.7774
G1 X63.311 Y323.107 E19.7776
G1 X60.266 Y327.353 E19.9004
G1 X60.263 Y327.357 E19.9005
G1 X60.231 Y327.401 E19.9018
G1 X60.227 Y327.406 E19.9019
G1 X57.079 Y331.575 E20.0248
G1 X57.076 Y331.580 E20.0249
G1 X57.042 Y331.623 E20.0262
G1 X57.039 Y331.627 E20.0263
G1 X53.789 Y335.718 E20.1492
G1 X53.785 Y335.722 E20.1493
G1 X53.751 Y335.764 E20.1506
G1 X53.747 Y335.769 E20.1507
G1 X50.397 Y339.778 E20.2736
G1 X50.394 Y339.782 E20.2737
G1 X50.358 Y339.824 E20.2750
G1 X50.355 Y339.828 E20.2751
G1 X48.143 Y342.346 E20.3539
G1 X48.143 Y346.336 E20.4477
G1 X48.006 Y346.667 E20.4561
G1 X45.410 Y349.263 E20.5425
G1 X45.079 Y349.400 E20.5509
G1 X26.674 Y349.400 E20.9837
G1 X26.343 Y349.263 E20.9921
G1 X23.747 Y346.667 E21.0784
G1 X23.610 Y346.336 E21.0868
G1 X23.610 Y338.403 E21.2734
G1 X23.610 Y338.383 E21.2738
G1 X23.619 Y338.189 E21.2784
G1 X23.620 Y338.170 E21.2789
G1 X23.706 Y337.185 E21.3021
G1 X23.711 Y337.146 E21.3030
G1 X23.779 Y336.763 E21.3122
G1 X23.787 Y336.725 E21.3131
G1 X24.068 Y335.676 E21.3386
G1 X24.080 Y335.639 E21.3395
G1 X24.213 Y335.273 E21.3487
G1 X24.228 Y335.237 E21.3496
G1 X24.687 Y334.253 E21.3751
G1 X24.705 Y334.218 E21.3761
G1 X24.899 Y333.882 E21.3852
G1 X24.921 Y333.849 E21.3861
G1 X25.543 Y332.959 E21.4116
G1 X25.567 Y332.928 E21.4126
G1 X25.817 Y332.630 E21.4217
G1 X25.844 Y332.601 E21.4226
G1 X26.611 Y331.834 E21.4482
G1 X26.640 Y331.807 E21.4491
G1 X26.938 Y331.557 E21.4582
G1 X26.969 Y331.533 E21.4591
G1 X27.859 Y330.911 E21.4847
G1 X27.892 Y330.889 E21.4856
G1 X28.228 Y330.695 E21.4947
G1 X28.263 Y330.677 E21.4957
G1 X29.247 Y330.218 E21.5212
G1 X29.283 Y330.203 E21.5221
G1 X29.649 Y330.070 E21.5312
G1 X29.686 Y330.058 E21.5322
G1 X30.735 Y329.777 E21.5577
G1 X30.773 Y329.769 E21.5586
G1 X31.156 Y329.702 E21.5678
G1 X31.195 Y329.696 E21.5687
G1 X32.180 Y329.610 E21.5919
G1 X32.199 Y329.609 E21.5924
G1 X32.393 Y329.600 E21.5970
G1 X32.413 Y329.600 E21.5974
G1 X32.981 Y329.600 E21.6108
G1 X34.830 Y327.513 E21.6763
G1 X38.006 Y323.740 E21.7923
G1 X41.085 Y319.888 E21.9083
G1 X44.067 Y315.959 E22.0242
