; G-Code generated by Simplify3D(R) Version 3.0.2
; Mai 3, 2017 at 6:04:18 
; Settings Summary
;   processName,Process1
;   applyToModels,Halter 002
;   profileName,Default (modified)
;   profileVersion,2015-05-01 08:00:00
;   baseProfile,
;   printMaterial,PLA
;   printQuality,Medium
;   printExtruders,
;   extruderName,Linker Extruder
;   extruderToolheadNumber,1
;   extruderDiameter,0.5
;   extruderAutoWidth,0
;   extruderWidth,0.6
;   extrusionMultiplier,1
;   extruderUseRetract,1
;   extruderRetractionDistance,1
;   extruderExtraRestartDistance,0
;   extruderRetractionZLift,0
;   extruderRetractionSpeed,1800
;   extruderUseCoasting,0
;   extruderCoastingDistance,0.2
;   extruderUseWipe,0
;   extruderWipeDistance,5
;   primaryExtruder,0
;   layerHeight,0.25
;   topSolidLayers,2
;   bottomSolidLayers,2
;   perimeterOutlines,2
;   printPerimetersInsideOut,1
;   startPointOption,2
;   startPointOriginX,0
;   startPointOriginY,0
;   startPointOriginZ,300
;   sequentialIslands,0
;   spiralVaseMode,0
;   firstLayerHeightPercentage,100
;   firstLayerWidthPercentage,100
;   firstLayerUnderspeed,0.5
;   useRaft,0
;   raftExtruder,0
;   raftLayers,3
;   raftOffset,3
;   raftSeparationDistance,0.14
;   raftInfill,85
;   disableRaftBaseLayers,0
;   useSkirt,1
;   skirtExtruder,0
;   skirtLayers,1
;   skirtOutlines,2
;   skirtOffset,4
;   usePrimePillar,0
;   primePillarExtruder,999
;   primePillarWidth,12
;   primePillarLocation,7
;   primePillarSpeedMultiplier,1
;   useOozeShield,0
;   oozeShieldExtruder,999
;   oozeShieldOffset,2
;   oozeShieldOutlines,1
;   oozeShieldSidewallShape,1
;   oozeShieldSidewallAngle,30
;   oozeShieldSpeedMultiplier,1
;   infillExtruder,0
;   internalInfillPattern,Rectilinear
;   externalInfillPattern,Rectilinear
;   infillPercentage,100
;   outlineOverlapPercentage,24
;   infillExtrusionWidthPercentage,100
;   minInfillLength,5
;   infillLayerInterval,1
;   infillAngles,45,-45
;   overlapInfillAngles,0
;   generateSupport,0
;   supportExtruder,0
;   supportInfillPercentage,30
;   supportExtraInflation,0
;   denseSupportLayers,0
;   denseSupportInfillPercentage,70
;   supportLayerInterval,1
;   supportHorizontalPartOffset,0.3
;   supportUpperSeparationLayers,1
;   supportLowerSeparationLayers,1
;   supportType,0
;   supportGridSpacing,4
;   maxOverhangAngle,45
;   supportAngles,0
;   temperatureName,Linker Extruder,Headbed
;   temperatureNumber,1,0
;   temperatureSetpointCount,1,1
;   temperatureSetpointLayers,1,1
;   temperatureSetpointTemperatures,205,50
;   temperatureStabilizeAtStartup,1,1
;   temperatureHeatedBed,0,1
;   temperatureRelayBetweenLayers,0,0
;   temperatureRelayBetweenLoops,0,0
;   fanLayers,1,2
;   fanSpeeds,0,100
;   blipFanToFullPower,0
;   adjustSpeedForCooling,1
;   minSpeedLayerTime,15
;   minCoolingSpeedSlowdown,20
;   increaseFanForCooling,0
;   minFanLayerTime,45
;   maxCoolingFanSpeed,100
;   increaseFanForBridging,0
;   bridgingFanSpeed,100
;   use5D,1
;   relativeEdistances,0
;   allowEaxisZeroing,1
;   independentExtruderAxes,0
;   includeM10123,0
;   stickySupport,1
;   applyToolheadOffsets,0
;   gcodeXoffset,0
;   gcodeYoffset,0
;   gcodeZoffset,0
;   overrideMachineDefinition,0
;   machineTypeOverride,0
;   strokeXoverride,200
;   strokeYoverride,200
;   strokeZoverride,200
;   originOffsetXoverride,0
;   originOffsetYoverride,0
;   originOffsetZoverride,0
;   homeXdirOverride,-1
;   homeYdirOverride,-1
;   homeZdirOverride,-1
;   flipXoverride,1
;   flipYoverride,-1
;   flipZoverride,1
;   toolheadOffsets,0,0|0,0|0,0|0,0|0,0|0,0
;   overrideFirmwareConfiguration,0
;   firmwareTypeOverride,RepRap (Marlin/Repetier/Sprinter)
;   GPXconfigOverride,r2
;   baudRateOverride,115200
;   overridePrinterModels,0
;   printerModelsOverride
;   startingGcode,G28 ; home all axes
;   layerChangeGcode,
;   retractionGcode,
;   toolChangeGcode,
;   endingGcode,M104 S0 ; turn off extruder,M140 S0 ; turn off bed,M84 ; disable motors
;   createX3G,0
;   celebration,0
;   celebrationSong,Random Song
;   createMB5G,0
;   postProcessing,
;   defaultSpeed,2400
;   outlineUnderspeed,0.7
;   solidInfillUnderspeed,0.8
;   supportUnderspeed,0.8
;   rapidXYspeed,4800
;   rapidZspeed,1002
;   minBridgingArea,50
;   bridgingExtraInflation,0
;   bridgingExtrusionMultiplier,1
;   bridgingSpeedMultiplier,1
;   filamentDiameter,2.85
;   filamentPricePerKg,46
;   filamentDensity,1.25
;   useMinPrintHeight,0
;   minPrintHeight,0
;   useMaxPrintHeight,0
;   maxPrintHeight,0
;   useDiaphragm,0
;   diaphragmLayerInterval,20
;   robustSlicing,1
;   mergeAllIntoSolid,0
;   onlyRetractWhenCrossingOutline,1
;   retractBetweenLayers,1
;   useRetractionMinTravel,0
;   retractionMinTravel,3
;   retractWhileWiping,0
;   onlyWipeOutlines,1
;   avoidCrossingOutline,0
;   maxMovementDetourFactor,3
;   toolChangeRetractionDistance,12
;   toolChangeExtraRestartDistance,-0.5
;   toolChangeRetractionSpeed,600
;   allowThinWallGapFill,1
;   thinWallAllowedOverlapPercentage,10
;   horizontalSizeCompensation,0
G90
M82
M106 S0
M140 S50
M190 S50
M104 S205 T1
M109 S205 T1
G28 ; home all axes
G92 E0
G1 E-1.0000 F1800
G1 Z0.250 F1002
; layer 1, Z = 0.25
T1
; tool H0.250 W0.600
; skirt
G1 X90.672 Y173.757 F4800
G1 E0.0000 F540
G92 E0
G1 X91.515 Y173.314 E0.0224 F1200
G1 X91.525 Y173.309 E0.0227
G1 X91.626 Y173.260 E0.0253
G1 X91.636 Y173.255 E0.0256
G1 X93.279 Y172.494 E0.0681
G1 X93.293 Y172.488 E0.0685
G1 X93.431 Y172.430 E0.0720
G1 X93.445 Y172.424 E0.0724
G1 X95.135 Y171.776 E0.1149
G1 X95.146 Y171.772 E0.1152
G1 X95.252 Y171.735 E0.1178
G1 X95.262 Y171.731 E0.1181
G1 X96.167 Y171.435 E0.1405
G1 X96.178 Y171.432 E0.1408
G1 X96.286 Y171.400 E0.1434
G1 X96.297 Y171.397 E0.1437
G1 X98.026 Y170.927 E0.1858
G1 X98.037 Y170.924 E0.1861
G1 X98.146 Y170.897 E0.1887
G1 X98.157 Y170.895 E0.1890
G1 X99.069 Y170.695 E0.2109
G1 X99.076 Y170.694 E0.2111
G1 X99.149 Y170.679 E0.2128
G1 X99.157 Y170.678 E0.2130
G1 X100.074 Y170.509 E0.2350
G1 X100.086 Y170.508 E0.2352
G1 X100.195 Y170.490 E0.2378
G1 X100.207 Y170.489 E0.2381
G1 X101.967 Y170.256 E0.2798
G1 X101.978 Y170.255 E0.2801
G1 X102.089 Y170.243 E0.2827
G1 X102.100 Y170.242 E0.2830
G1 X103.046 Y170.165 E0.3053
G1 X103.057 Y170.164 E0.3056
G1 X103.170 Y170.158 E0.3082
G1 X103.181 Y170.157 E0.3085
G1 X104.990 Y170.102 E0.3511
G1 X105.002 Y170.102 E0.3513
G1 X105.114 Y170.101 E0.3540
G1 X105.125 Y170.101 E0.3542
G1 X106.067 Y170.120 E0.3764
G1 X106.078 Y170.120 E0.3766
G1 X106.191 Y170.125 E0.3793
G1 X106.202 Y170.126 E0.3796
G1 X108.011 Y170.254 E0.4222
G1 X108.022 Y170.255 E0.4225
G1 X108.135 Y170.266 E0.4251
G1 X108.146 Y170.267 E0.4254
G1 X109.091 Y170.382 E0.4478
G1 X109.103 Y170.384 E0.4480
G1 X109.213 Y170.400 E0.4507
G1 X109.225 Y170.402 E0.4510
G1 X111.009 Y170.711 E0.4935
G1 X111.023 Y170.714 E0.4939
G1 X111.170 Y170.745 E0.4974
G1 X111.185 Y170.748 E0.4977
G1 X112.944 Y171.177 E0.5403
G1 X112.955 Y171.179 E0.5406
G1 X113.063 Y171.209 E0.5432
G1 X113.074 Y171.212 E0.5435
G1 X113.986 Y171.483 E0.5659
G1 X113.997 Y171.487 E0.5661
G1 X114.104 Y171.521 E0.5688
G1 X114.115 Y171.525 E0.5690
G1 X115.804 Y172.122 E0.6112
G1 X115.815 Y172.126 E0.6114
G1 X115.919 Y172.166 E0.6141
G1 X115.930 Y172.170 E0.6144
G1 X116.793 Y172.525 E0.6363
G1 X116.800 Y172.528 E0.6365
G1 X116.869 Y172.558 E0.6382
G1 X116.876 Y172.561 E0.6384
G1 X117.727 Y172.945 E0.6604
G1 X117.737 Y172.949 E0.6606
G1 X117.838 Y172.998 E0.6633
G1 X117.848 Y173.003 E0.6635
G1 X119.459 Y173.830 E0.7061
G1 X119.472 Y173.837 E0.7065
G1 X119.603 Y173.910 E0.7100
G1 X119.616 Y173.917 E0.7103
G1 X121.168 Y174.850 E0.7529
G1 X121.177 Y174.856 E0.7532
G1 X121.272 Y174.916 E0.7558
G1 X121.281 Y174.923 E0.7561
G1 X122.072 Y175.454 E0.7785
G1 X122.081 Y175.460 E0.7787
G1 X122.172 Y175.525 E0.7814
G1 X122.182 Y175.532 E0.7816
G1 X123.617 Y176.605 E0.8238
G1 X123.626 Y176.612 E0.8240
G1 X123.714 Y176.681 E0.8267
G1 X123.722 Y176.688 E0.8269
G1 X124.441 Y177.284 E0.8489
G1 X124.447 Y177.289 E0.8491
G1 X124.503 Y177.338 E0.8508
G1 X124.509 Y177.343 E0.8510
G1 X125.207 Y177.963 E0.8729
G1 X125.215 Y177.970 E0.8732
G1 X125.297 Y178.047 E0.8758
G1 X125.305 Y178.055 E0.8761
G1 X126.584 Y179.310 E0.9182
G1 X126.592 Y179.318 E0.9185
G1 X126.670 Y179.399 E0.9211
G1 X126.677 Y179.407 E0.9214
G1 X127.322 Y180.108 E0.9438
G1 X127.330 Y180.116 E0.9441
G1 X127.404 Y180.201 E0.9467
G1 X127.411 Y180.209 E0.9470
G1 X128.568 Y181.601 E0.9895
G1 X128.577 Y181.613 E0.9899
G1 X128.668 Y181.730 E0.9934
G1 X128.677 Y181.742 E0.9937
G1 X129.724 Y183.187 E1.0357
G1 X129.730 Y183.196 E1.0359
G1 X129.793 Y183.287 E1.0385
G1 X129.799 Y183.297 E1.0388
G1 X130.305 Y184.073 E1.0606
G1 X130.309 Y184.080 E1.0608
G1 X130.349 Y184.145 E1.0626
G1 X130.353 Y184.151 E1.0627
G1 X130.852 Y184.978 E1.0854
G1 X130.857 Y184.988 E1.0857
G1 X130.913 Y185.085 E1.0884
G1 X130.919 Y185.095 E1.0886
G1 X131.760 Y186.664 E1.1305
G1 X131.765 Y186.674 E1.1307
G1 X131.816 Y186.775 E1.1334
G1 X131.821 Y186.786 E1.1337
G1 X132.237 Y187.666 E1.1566
G1 X132.241 Y187.676 E1.1568
G1 X132.286 Y187.776 E1.1594
G1 X132.290 Y187.786 E1.1597
G1 X132.961 Y189.409 E1.2010
G1 X132.966 Y189.423 E1.2013
G1 X133.018 Y189.561 E1.2048
G1 X133.023 Y189.575 E1.2051
G1 X133.602 Y191.290 E1.2477
G1 X133.606 Y191.301 E1.2479
G1 X133.639 Y191.408 E1.2506
G1 X133.642 Y191.419 E1.2508
G1 X133.901 Y192.335 E1.2732
G1 X133.904 Y192.346 E1.2735
G1 X133.931 Y192.455 E1.2761
G1 X133.934 Y192.466 E1.2764
G1 X134.333 Y194.212 E1.3185
G1 X134.336 Y194.223 E1.3188
G1 X134.358 Y194.333 E1.3214
G1 X134.360 Y194.345 E1.3217
G1 X134.522 Y195.264 E1.3437
G1 X134.523 Y195.271 E1.3438
G1 X134.535 Y195.345 E1.3456
G1 X134.536 Y195.353 E1.3458
G1 X134.667 Y196.277 E1.3677
G1 X134.669 Y196.288 E1.3680
G1 X134.682 Y196.399 E1.3706
G1 X134.683 Y196.411 E1.3709
G1 X134.845 Y198.195 E1.4130
G1 X134.846 Y198.207 E1.4133
G1 X134.853 Y198.318 E1.4159
G1 X134.853 Y198.330 E1.4162
G1 X134.892 Y199.281 E1.4386
G1 X134.892 Y199.292 E1.4388
G1 X134.893 Y199.405 E1.4415
G1 X134.893 Y199.416 E1.4417
G1 X134.875 Y201.208 E1.4839
G1 X134.875 Y201.219 E1.4841
G1 X134.871 Y201.331 E1.4868
G1 X134.870 Y201.342 E1.4870
G1 X134.812 Y202.293 E1.5094
G1 X134.811 Y202.304 E1.5097
G1 X134.802 Y202.416 E1.5123
G1 X134.801 Y202.427 E1.5126
G1 X134.600 Y204.226 E1.5552
G1 X134.598 Y204.241 E1.5555
G1 X134.576 Y204.389 E1.5590
G1 X134.574 Y204.404 E1.5594
G1 X134.252 Y206.186 E1.6020
G1 X134.250 Y206.197 E1.6022
G1 X134.228 Y206.307 E1.6049
G1 X134.225 Y206.318 E1.6051
G1 X134.009 Y207.246 E1.6275
G1 X134.007 Y207.257 E1.6278
G1 X133.978 Y207.365 E1.6304
G1 X133.975 Y207.376 E1.6307
G1 X133.482 Y209.098 E1.6728
G1 X133.478 Y209.109 E1.6731
G1 X133.445 Y209.216 E1.6757
G1 X133.441 Y209.227 E1.6760
G1 X133.133 Y210.129 E1.6984
G1 X133.129 Y210.139 E1.6987
G1 X133.090 Y210.245 E1.7013
G1 X133.086 Y210.256 E1.7016
G1 X132.411 Y211.943 E1.7443
G1 X132.406 Y211.954 E1.7446
G1 X132.362 Y212.057 E1.7473
G1 X132.357 Y212.068 E1.7475
G1 X131.960 Y212.930 E1.7698
G1 X131.956 Y212.940 E1.7701
G1 X131.906 Y213.041 E1.7727
G1 X131.901 Y213.051 E1.7730
G1 X131.077 Y214.629 E1.8149
G1 X131.071 Y214.639 E1.8151
G1 X131.016 Y214.738 E1.8178
G1 X131.011 Y214.748 E1.8181
G1 X130.511 Y215.595 E1.8412
G1 X130.506 Y215.605 E1.8415
G1 X130.446 Y215.700 E1.8441
G1 X130.440 Y215.710 E1.8444
G1 X129.457 Y217.202 E1.8864
G1 X129.448 Y217.214 E1.8867
G1 X129.363 Y217.335 E1.8902
G1 X129.354 Y217.347 E1.8906
G1 X128.265 Y218.781 E1.9329
G1 X128.258 Y218.790 E1.9332
G1 X128.188 Y218.878 E1.9358
G1 X128.181 Y218.886 E1.9361
G1 X127.580 Y219.600 E1.9580
G1 X127.576 Y219.606 E1.9582
G1 X127.526 Y219.662 E1.9599
G1 X127.521 Y219.668 E1.9601
G1 X126.897 Y220.362 E1.9821
G1 X126.889 Y220.370 E1.9823
G1 X126.812 Y220.451 E1.9850
G1 X126.804 Y220.460 E1.9852
G1 X125.526 Y221.742 E2.0278
G1 X125.515 Y221.753 E2.0282
G1 X125.406 Y221.855 E2.0317
G1 X125.395 Y221.865 E2.0320
G1 X124.034 Y223.059 E2.0746
G1 X124.025 Y223.067 E2.0749
G1 X123.939 Y223.138 E2.0775
G1 X123.930 Y223.145 E2.0778
G1 X123.199 Y223.725 E2.0997
G1 X123.193 Y223.730 E2.0999
G1 X123.133 Y223.775 E2.1017
G1 X123.127 Y223.779 E2.1018
G1 X122.376 Y224.334 E2.1238
G1 X122.367 Y224.341 E2.1241
G1 X122.275 Y224.405 E2.1267
G1 X122.266 Y224.411 E2.1270
G1 X120.773 Y225.402 E2.1691
G1 X120.763 Y225.408 E2.1694
G1 X120.668 Y225.467 E2.1720
G1 X120.658 Y225.473 E2.1723
G1 X119.839 Y225.959 E2.1946
G1 X119.830 Y225.965 E2.1949
G1 X119.732 Y226.019 E2.1976
G1 X119.722 Y226.025 E2.1978
G1 X118.120 Y226.869 E2.2404
G1 X118.106 Y226.875 E2.2407
G1 X117.972 Y226.941 E2.2443
G1 X117.958 Y226.947 E2.2446
G1 X116.303 Y227.681 E2.2872
G1 X116.293 Y227.686 E2.2875
G1 X116.189 Y227.729 E2.2901
G1 X116.179 Y227.733 E2.2904
G1 X115.307 Y228.068 E2.3123
G1 X115.300 Y228.071 E2.3125
G1 X115.230 Y228.097 E2.3142
G1 X115.223 Y228.099 E2.3144
G1 X114.341 Y228.405 E2.3364
G1 X114.330 Y228.408 E2.3366
G1 X114.223 Y228.442 E2.3393
G1 X114.213 Y228.446 E2.3395
G1 X112.492 Y228.946 E2.3817
G1 X112.481 Y228.949 E2.3819
G1 X112.373 Y228.978 E2.3846
G1 X112.362 Y228.981 E2.3848
G1 X111.435 Y229.201 E2.4072
G1 X111.424 Y229.203 E2.4075
G1 X111.315 Y229.226 E2.4101
G1 X111.303 Y229.228 E2.4104
G1 X109.541 Y229.554 E2.4525
G1 X109.530 Y229.555 E2.4528
G1 X109.418 Y229.573 E2.4555
G1 X109.406 Y229.575 E2.4557
G1 X108.444 Y229.702 E2.4786
G1 X108.433 Y229.704 E2.4788
G1 X108.321 Y229.716 E2.4815
G1 X108.309 Y229.717 E2.4818
G1 X106.501 Y229.863 E2.5244
G1 X106.486 Y229.864 E2.5248
G1 X106.335 Y229.871 E2.5283
G1 X106.320 Y229.872 E2.5287
G1 X104.471 Y229.896 E2.5722
G1 X104.456 Y229.896 E2.5725
G1 X104.307 Y229.893 E2.5760
G1 X104.292 Y229.892 E2.5764
G1 X102.514 Y229.797 E2.6182
G1 X102.503 Y229.796 E2.6185
G1 X102.392 Y229.787 E2.6211
G1 X102.381 Y229.786 E2.6214
G1 X101.456 Y229.690 E2.6432
G1 X101.449 Y229.689 E2.6434
G1 X101.375 Y229.681 E2.6452
G1 X101.367 Y229.680 E2.6453
G1 X100.443 Y229.552 E2.6673
G1 X100.431 Y229.550 E2.6675
G1 X100.321 Y229.532 E2.6702
G1 X100.310 Y229.530 E2.6704
G1 X98.549 Y229.196 E2.7126
G1 X98.538 Y229.194 E2.7128
G1 X98.428 Y229.170 E2.7155
G1 X98.417 Y229.168 E2.7158
G1 X97.492 Y228.943 E2.7381
G1 X97.481 Y228.941 E2.7384
G1 X97.373 Y228.911 E2.7410
G1 X97.362 Y228.908 E2.7413
G1 X95.626 Y228.394 E2.7839
G1 X95.612 Y228.389 E2.7842
G1 X95.470 Y228.342 E2.7878
G1 X95.456 Y228.337 E2.7881
G1 X93.758 Y227.707 E2.8307
G1 X93.748 Y227.702 E2.8309
G1 X93.644 Y227.661 E2.8336
G1 X93.633 Y227.656 E2.8339
G1 X92.775 Y227.288 E2.8558
G1 X92.769 Y227.285 E2.8560
G1 X92.700 Y227.254 E2.8577
G1 X92.694 Y227.251 E2.8579
G1 X91.849 Y226.854 E2.8799
G1 X91.839 Y226.849 E2.8801
G1 X91.738 Y226.799 E2.8828
G1 X91.728 Y226.793 E2.8830
G1 X90.147 Y225.950 E2.9252
G1 X90.137 Y225.945 E2.9254
G1 X90.040 Y225.890 E2.9281
G1 X90.030 Y225.884 E2.9283
G1 X89.213 Y225.394 E2.9507
G1 X89.204 Y225.388 E2.9510
G1 X89.109 Y225.328 E2.9536
G1 X89.099 Y225.322 E2.9539
G1 X87.596 Y224.314 E2.9965
G1 X87.583 Y224.305 E2.9968
G1 X87.462 Y224.217 E3.0003
G1 X87.450 Y224.208 E3.0007
G1 X86.017 Y223.101 E3.0433
G1 X86.008 Y223.094 E3.0435
G1 X85.921 Y223.023 E3.0462
G1 X85.913 Y223.016 E3.0464
G1 X85.189 Y222.397 E3.0688
G1 X85.181 Y222.389 E3.0691
G1 X85.098 Y222.314 E3.0717
G1 X85.089 Y222.307 E3.0720
G1 X83.789 Y221.074 E3.1141
G1 X83.781 Y221.066 E3.1144
G1 X83.701 Y220.987 E3.1170
G1 X83.693 Y220.979 E3.1173
G1 X83.036 Y220.290 E3.1397
G1 X83.029 Y220.281 E3.1399
G1 X82.953 Y220.198 E3.1426
G1 X82.946 Y220.190 E3.1428
G1 X81.776 Y218.832 E3.1850
G1 X81.769 Y218.824 E3.1852
G1 X81.698 Y218.737 E3.1879
G1 X81.691 Y218.728 E3.1882
G1 X81.106 Y217.976 E3.2106
G1 X81.099 Y217.967 E3.2108
G1 X81.032 Y217.876 E3.2135
G1 X81.025 Y217.866 E3.2138
G1 X79.976 Y216.365 E3.2568
G1 X79.968 Y216.353 E3.2572
G1 X79.886 Y216.228 E3.2607
G1 X79.878 Y216.215 E3.2610
G1 X78.954 Y214.684 E3.3031
G1 X78.948 Y214.674 E3.3033
G1 X78.893 Y214.577 E3.3060
G1 X78.887 Y214.567 E3.3062
G1 X78.433 Y213.720 E3.3289
G1 X78.427 Y213.710 E3.3291
G1 X78.377 Y213.609 E3.3318
G1 X78.372 Y213.599 E3.3320
G1 X77.605 Y211.979 E3.3742
G1 X77.600 Y211.969 E3.3744
