; G-Code generated by Simplify3D(R) Version 3.0.2
; Mai 3, 2017 at 5:58:27 
; Settings Summary
;   processName,Process1
;   applyToModels,Halter 001
;   profileName,Default (modified)
;   profileVersion,2015-05-01 08:00:00
;   baseProfile,
;   printMaterial,PLA
;   printQuality,Medium
;   printExtruders,
;   extruderName,Linker Extruder
;   extruderToolheadNumber,1
;   extruderDiameter,0.5
;   extruderAutoWidth,0
;   extruderWidth,0.6
;   extrusionMultiplier,1
;   extruderUseRetract,1
;   extruderRetractionDistance,1
;   extruderExtraRestartDistance,0
;   extruderRetractionZLift,0
;   extruderRetractionSpeed,1800
;   extruderUseCoasting,0
;   extruderCoastingDistance,0.2
;   extruderUseWipe,0
;   extruderWipeDistance,5
;   primaryExtruder,0
;   layerHeight,0.25
;   topSolidLayers,2
;   bottomSolidLayers,2
;   perimeterOutlines,2
;   printPerimetersInsideOut,1
;   startPointOption,2
;   startPointOriginX,0
;   startPointOriginY,0
;   startPointOriginZ,300
;   sequentialIslands,0
;   spiralVaseMode,0
;   firstLayerHeightPercentage,100
;   firstLayerWidthPercentage,100
;   firstLayerUnderspeed,0.5
;   useRaft,0
;   raftExtruder,0
;   raftLayers,3
;   raftOffset,3
;   raftSeparationDistance,0.14
;   raftInfill,85
;   disableRaftBaseLayers,0
;   useSkirt,1
;   skirtExtruder,0
;   skirtLayers,1
;   skirtOutlines,2
;   skirtOffset,4
;   usePrimePillar,0
;   primePillarExtruder,999
;   primePillarWidth,12
;   primePillarLocation,7
;   primePillarSpeedMultiplier,1
;   useOozeShield,0
;   oozeShieldExtruder,999
;   oozeShieldOffset,2
;   oozeShieldOutlines,1
;   oozeShieldSidewallShape,1
;   oozeShieldSidewallAngle,30
;   oozeShieldSpeedMultiplier,1
;   infillExtruder,0
;   internalInfillPattern,Rectilinear
;   externalInfillPattern,Rectilinear
;   infillPercentage,100
;   outlineOverlapPercentage,24
;   infillExtrusionWidthPercentage,100
;   minInfillLength,5
;   infillLayerInterval,1
;   infillAngles,45,-45
;   overlapInfillAngles,0
;   generateSupport,0
;   supportExtruder,0
;   supportInfillPercentage,30
;   supportExtraInflation,0
;   denseSupportLayers,0
;   denseSupportInfillPercentage,70
;   supportLayerInterval,1
;   supportHorizontalPartOffset,0.3
;   supportUpperSeparationLayers,1
;   supportLowerSeparationLayers,1
;   supportType,0
;   supportGridSpacing,4
;   maxOverhangAngle,45
;   supportAngles,0
;   temperatureName,Linker Extruder,Headbed
;   temperatureNumber,1,0
;   temperatureSetpointCount,1,1
;   temperatureSetpointLayers,1,1
;   temperatureSetpointTemperatures,205,50
;   temperatureStabilizeAtStartup,1,1
;   temperatureHeatedBed,0,1
;   temperatureRelayBetweenLayers,0,0
;   temperatureRelayBetweenLoops,0,0
;   fanLayers,1,2
;   fanSpeeds,0,100
;   blipFanToFullPower,0
;   adjustSpeedForCooling,1
;   minSpeedLayerTime,15
;   minCoolingSpeedSlowdown,20
;   increaseFanForCooling,0
;   minFanLayerTime,45
;   maxCoolingFanSpeed,100
;   increaseFanForBridging,0
;   bridgingFanSpeed,100
;   use5D,1
;   relativeEdistances,0
;   allowEaxisZeroing,1
;   independentExtruderAxes,0
;   includeM10123,0
;   stickySupport,1
;   applyToolheadOffsets,0
;   gcodeXoffset,0
;   gcodeYoffset,0
;   gcodeZoffset,0
;   overrideMachineDefinition,0
;   machineTypeOverride,0
;   strokeXoverride,200
;   strokeYoverride,200
;   strokeZoverride,200
;   originOffsetXoverride,0
;   originOffsetYoverride,0
;   originOffsetZoverride,0
;   homeXdirOverride,-1
;   homeYdirOverride,-1
;   homeZdirOverride,-1
;   flipXoverride,1
;   flipYoverride,-1
;   flipZoverride,1
;   toolheadOffsets,0,0|0,0|0,0|0,0|0,0|0,0
;   overrideFirmwareConfiguration,0
;   firmwareTypeOverride,RepRap (Marlin/Repetier/Sprinter)
;   GPXconfigOverride,r2
;   baudRateOverride,115200
;   overridePrinterModels,0
;   printerModelsOverride
;   startingGcode,G28 ; home all axes
;   layerChangeGcode,
;   retractionGcode,
;   toolChangeGcode,
;   endingGcode,M104 S0 ; turn off extruder,M140 S0 ; turn off bed,M84 ; disable motors
;   createX3G,0
;   celebration,0
;   celebrationSong,Random Song
;   createMB5G,0
;   postProcessing,
;   defaultSpeed,2400
;   outlineUnderspeed,0.7
;   solidInfillUnderspeed,0.8
;   supportUnderspeed,0.8
;   rapidXYspeed,4800
;   rapidZspeed,1002
;   minBridgingArea,50
;   bridgingExtraInflation,0
;   bridgingExtrusionMultiplier,1
;   bridgingSpeedMultiplier,1
;   filamentDiameter,2.85
;   filamentPricePerKg,46
;   filamentDensity,1.25
;   useMinPrintHeight,0
;   minPrintHeight,0
;   useMaxPrintHeight,0
;   maxPrintHeight,0
;   useDiaphragm,0
;   diaphragmLayerInterval,20
;   robustSlicing,1
;   mergeAllIntoSolid,0
;   onlyRetractWhenCrossingOutline,1
;   retractBetweenLayers,1
;   useRetractionMinTravel,0
;   retractionMinTravel,3
;   retractWhileWiping,0
;   onlyWipeOutlines,1
;   avoidCrossingOutline,0
;   maxMovementDetourFactor,3
;   toolChangeRetractionDistance,12
;   toolChangeExtraRestartDistance,-0.5
;   toolChangeRetractionSpeed,600
;   allowThinWallGapFill,1
;   thinWallAllowedOverlapPercentage,10
;   horizontalSizeCompensation,0
G90
M82
M106 S0
M140 S50
M190 S50
M104 S205 T1
M109 S205 T1
G28 ; home all axes
G92 E0
G1 E-1.0000 F1800
G1 Z0.250 F1002
; layer 1, Z = 0.25
T1
; tool H0.250 W0.600
; skirt
G1 X91.788 Y173.178 F4800
G1 E0.0000 F540
G92 E0
G1 X91.798 Y173.173 E0.0003 F1200
G1 X91.899 Y173.122 E0.0029
G1 X91.909 Y173.117 E0.0032
G1 X92.776 Y172.712 E0.0257
G1 X92.787 Y172.708 E0.0260
G1 X92.890 Y172.662 E0.0286
G1 X92.901 Y172.658 E0.0289
G1 X94.569 Y171.979 E0.0712
G1 X94.580 Y171.975 E0.0715
G1 X94.685 Y171.935 E0.0741
G1 X94.696 Y171.931 E0.0744
G1 X95.582 Y171.622 E0.0965
G1 X95.589 Y171.619 E0.0967
G1 X95.660 Y171.596 E0.0984
G1 X95.667 Y171.594 E0.0986
G1 X96.563 Y171.314 E0.1207
G1 X96.574 Y171.311 E0.1209
G1 X96.683 Y171.280 E0.1236
G1 X96.694 Y171.277 E0.1239
G1 X98.456 Y170.825 E0.1666
G1 X98.471 Y170.821 E0.1670
G1 X98.618 Y170.789 E0.1705
G1 X98.633 Y170.786 E0.1709
G1 X100.422 Y170.453 E0.2137
G1 X100.433 Y170.451 E0.2140
G1 X100.545 Y170.433 E0.2166
G1 X100.556 Y170.432 E0.2169
G1 X101.486 Y170.307 E0.2389
G1 X101.494 Y170.306 E0.2391
G1 X101.568 Y170.297 E0.2409
G1 X101.576 Y170.297 E0.2411
G1 X102.509 Y170.203 E0.2631
G1 X102.521 Y170.202 E0.2634
G1 X102.633 Y170.194 E0.2660
G1 X102.645 Y170.193 E0.2663
G1 X104.444 Y170.106 E0.3087
G1 X104.455 Y170.105 E0.3089
G1 X104.568 Y170.103 E0.3116
G1 X104.579 Y170.102 E0.3119
G1 X105.517 Y170.104 E0.3339
G1 X105.525 Y170.104 E0.3341
G1 X105.600 Y170.106 E0.3359
G1 X105.608 Y170.106 E0.3360
G1 X106.546 Y170.139 E0.3581
G1 X106.557 Y170.140 E0.3584
G1 X106.669 Y170.147 E0.3610
G1 X106.681 Y170.148 E0.3613
G1 X108.475 Y170.303 E0.4036
G1 X108.487 Y170.304 E0.4039
G1 X108.599 Y170.317 E0.4066
G1 X108.610 Y170.318 E0.4068
G1 X109.558 Y170.449 E0.4293
G1 X109.569 Y170.451 E0.4296
G1 X109.681 Y170.469 E0.4322
G1 X109.692 Y170.471 E0.4325
G1 X111.480 Y170.810 E0.4753
G1 X111.495 Y170.814 E0.4757
G1 X111.641 Y170.847 E0.4792
G1 X111.656 Y170.850 E0.4796
G1 X113.435 Y171.314 E0.5228
G1 X113.450 Y171.318 E0.5232
G1 X113.594 Y171.361 E0.5267
G1 X113.609 Y171.366 E0.5270
G1 X115.335 Y171.943 E0.5698
G1 X115.345 Y171.947 E0.5701
G1 X115.451 Y171.985 E0.5728
G1 X115.462 Y171.989 E0.5730
G1 X116.353 Y172.339 E0.5955
G1 X116.364 Y172.343 E0.5958
G1 X116.468 Y172.387 E0.5985
G1 X116.478 Y172.391 E0.5987
G1 X118.120 Y173.133 E0.6411
G1 X118.130 Y173.137 E0.6413
G1 X118.231 Y173.186 E0.6440
G1 X118.242 Y173.191 E0.6443
G1 X119.076 Y173.620 E0.6663
G1 X119.083 Y173.624 E0.6665
G1 X119.149 Y173.659 E0.6683
G1 X119.156 Y173.663 E0.6684
G1 X119.975 Y174.120 E0.6905
G1 X119.985 Y174.126 E0.6908
G1 X120.082 Y174.183 E0.6934
G1 X120.092 Y174.189 E0.6937
G1 X121.619 Y175.144 E0.7360
G1 X121.628 Y175.151 E0.7363
G1 X121.722 Y175.213 E0.7390
G1 X121.732 Y175.219 E0.7392
G1 X122.516 Y175.767 E0.7617
G1 X122.526 Y175.774 E0.7620
G1 X122.616 Y175.841 E0.7647
G1 X122.626 Y175.848 E0.7649
G1 X124.063 Y176.965 E0.8077
G1 X124.075 Y176.974 E0.8081
G1 X124.190 Y177.070 E0.8116
G1 X124.201 Y177.080 E0.8120
G1 X125.560 Y178.291 E0.8548
G1 X125.568 Y178.299 E0.8550
G1 X125.651 Y178.376 E0.8577
G1 X125.659 Y178.384 E0.8579
G1 X126.327 Y179.043 E0.8800
G1 X126.332 Y179.049 E0.8802
G1 X126.385 Y179.102 E0.8820
G1 X126.390 Y179.108 E0.8821
G1 X127.035 Y179.789 E0.9042
G1 X127.043 Y179.797 E0.9045
G1 X127.118 Y179.881 E0.9071
G1 X127.126 Y179.890 E0.9074
G1 X128.309 Y181.273 E0.9502
G1 X128.319 Y181.285 E0.9505
G1 X128.413 Y181.403 E0.9541
G1 X128.422 Y181.415 E0.9544
G1 X129.527 Y182.899 E0.9979
G1 X129.535 Y182.911 E0.9983
G1 X129.621 Y183.035 E1.0018
G1 X129.630 Y183.047 E1.0022
G1 X130.615 Y184.577 E1.0450
G1 X130.621 Y184.587 E1.0453
G1 X130.681 Y184.686 E1.0480
G1 X130.687 Y184.695 E1.0482
G1 X131.178 Y185.553 E1.0715
G1 X131.184 Y185.563 E1.0717
G1 X131.237 Y185.661 E1.0744
G1 X131.242 Y185.671 E1.0746
G1 X132.044 Y187.248 E1.1162
G1 X132.049 Y187.258 E1.1165
G1 X132.097 Y187.359 E1.1191
G1 X132.101 Y187.369 E1.1194
G1 X132.483 Y188.224 E1.1414
G1 X132.486 Y188.231 E1.1416
G1 X132.516 Y188.300 E1.1433
G1 X132.519 Y188.307 E1.1435
G1 X132.872 Y189.176 E1.1656
G1 X132.876 Y189.186 E1.1658
G1 X132.916 Y189.292 E1.1685
G1 X132.920 Y189.303 E1.1688
G1 X133.520 Y191.021 E1.2116
G1 X133.525 Y191.035 E1.2119
G1 X133.569 Y191.179 E1.2154
G1 X133.574 Y191.193 E1.2158
G1 X134.056 Y192.948 E1.2586
G1 X134.059 Y192.959 E1.2589
G1 X134.086 Y193.069 E1.2615
G1 X134.089 Y193.080 E1.2618
G1 X134.291 Y193.996 E1.2838
G1 X134.293 Y194.004 E1.2840
G1 X134.308 Y194.077 E1.2858
G1 X134.309 Y194.085 E1.2860
G1 X134.480 Y195.007 E1.3080
G1 X134.482 Y195.018 E1.3083
G1 X134.500 Y195.130 E1.3110
G1 X134.502 Y195.141 E1.3112
G1 X134.743 Y196.945 E1.3540
G1 X134.745 Y196.960 E1.3544
G1 X134.760 Y197.110 E1.3579
G1 X134.761 Y197.125 E1.3583
G1 X134.881 Y198.941 E1.4011
G1 X134.881 Y198.952 E1.4013
G1 X134.886 Y199.065 E1.4040
G1 X134.886 Y199.076 E1.4042
G1 X134.900 Y200.014 E1.4263
G1 X134.900 Y200.022 E1.4265
G1 X134.900 Y200.097 E1.4283
G1 X134.900 Y200.105 E1.4284
G1 X134.882 Y201.043 E1.4505
G1 X134.882 Y201.054 E1.4508
G1 X134.877 Y201.167 E1.4534
G1 X134.876 Y201.178 E1.4537
G1 X134.751 Y202.975 E1.4960
G1 X134.750 Y202.986 E1.4963
G1 X134.739 Y203.099 E1.4990
G1 X134.738 Y203.110 E1.4992
G1 X134.623 Y204.060 E1.5217
G1 X134.622 Y204.071 E1.5220
G1 X134.605 Y204.183 E1.5246
G1 X134.604 Y204.194 E1.5249
G1 X134.297 Y205.969 E1.5673
G1 X134.295 Y205.981 E1.5675
G1 X134.273 Y206.091 E1.5702
G1 X134.271 Y206.102 E1.5705
G1 X134.061 Y207.036 E1.5930
G1 X134.058 Y207.047 E1.5932
G1 X134.030 Y207.156 E1.5959
G1 X134.027 Y207.167 E1.5961
G1 X133.543 Y208.902 E1.6385
G1 X133.540 Y208.913 E1.6388
G1 X133.507 Y209.021 E1.6414
G1 X133.503 Y209.032 E1.6417
G1 X133.200 Y209.939 E1.6642
G1 X133.196 Y209.950 E1.6644
G1 X133.158 Y210.056 E1.6671
G1 X133.154 Y210.067 E1.6674
G1 X132.489 Y211.761 E1.7102
G1 X132.484 Y211.775 E1.7105
G1 X132.424 Y211.913 E1.7141
G1 X132.418 Y211.927 E1.7144
G1 X131.641 Y213.573 E1.7572
G1 X131.636 Y213.583 E1.7575
G1 X131.585 Y213.684 E1.7601
G1 X131.580 Y213.694 E1.7604
G1 X131.137 Y214.521 E1.7825
G1 X131.133 Y214.528 E1.7826
G1 X131.097 Y214.594 E1.7844
G1 X131.093 Y214.600 E1.7846
G1 X130.622 Y215.412 E1.8066
G1 X130.616 Y215.422 E1.8069
G1 X130.557 Y215.518 E1.8096
G1 X130.551 Y215.527 E1.8098
G1 X129.570 Y217.038 E1.8522
G1 X129.563 Y217.047 E1.8525
G1 X129.500 Y217.140 E1.8551
G1 X129.493 Y217.149 E1.8554
G1 X128.932 Y217.925 E1.8779
G1 X128.925 Y217.934 E1.8781
G1 X128.856 Y218.023 E1.8808
G1 X128.849 Y218.032 E1.8811
G1 X127.709 Y219.450 E1.9239
G1 X127.699 Y219.462 E1.9242
G1 X127.601 Y219.576 E1.9277
G1 X127.591 Y219.587 E1.9281
G1 X126.344 Y220.939 E1.9713
G1 X126.333 Y220.950 E1.9717
G1 X126.228 Y221.057 E1.9752
G1 X126.217 Y221.067 E1.9756
G1 X124.895 Y222.319 E2.0184
G1 X124.887 Y222.327 E2.0187
G1 X124.803 Y222.402 E2.0213
G1 X124.795 Y222.410 E2.0216
G1 X124.067 Y223.032 E2.0441
G1 X124.059 Y223.039 E2.0443
G1 X123.971 Y223.110 E2.0470
G1 X123.962 Y223.117 E2.0473
G1 X122.536 Y224.217 E2.0896
G1 X122.527 Y224.224 E2.0899
G1 X122.436 Y224.290 E2.0925
G1 X122.426 Y224.297 E2.0928
G1 X121.655 Y224.831 E2.1149
G1 X121.649 Y224.836 E2.1150
G1 X121.586 Y224.877 E2.1168
G1 X121.580 Y224.882 E2.1170
G1 X120.791 Y225.390 E2.1390
G1 X120.782 Y225.396 E2.1393
G1 X120.685 Y225.455 E2.1420
G1 X120.676 Y225.460 E2.1422
G1 X119.114 Y226.358 E2.1846
G1 X119.104 Y226.364 E2.1849
G1 X119.005 Y226.417 E2.1875
G1 X118.995 Y226.423 E2.1878
G1 X118.142 Y226.857 E2.2103
G1 X118.132 Y226.862 E2.2105
G1 X118.030 Y226.911 E2.2132
G1 X118.020 Y226.915 E2.2135
G1 X116.375 Y227.651 E2.2558
G1 X116.365 Y227.655 E2.2561
G1 X116.261 Y227.698 E2.2587
G1 X116.250 Y227.703 E2.2590
G1 X115.358 Y228.049 E2.2815
G1 X115.347 Y228.053 E2.2818
G1 X115.241 Y228.091 E2.2844
G1 X115.230 Y228.094 E2.2847
G1 X113.502 Y228.665 E2.3275
G1 X113.488 Y228.670 E2.3278
G1 X113.343 Y228.712 E2.3314
G1 X113.329 Y228.716 E2.3317
G1 X111.566 Y229.169 E2.3745
G1 X111.555 Y229.172 E2.3748
G1 X111.445 Y229.197 E2.3775
G1 X111.434 Y229.200 E2.3777
G1 X110.496 Y229.391 E2.4002
G1 X110.485 Y229.393 E2.4005
G1 X110.373 Y229.413 E2.4032
G1 X110.362 Y229.414 E2.4034
G1 X108.568 Y229.685 E2.4461
G1 X108.557 Y229.687 E2.4464
G1 X108.444 Y229.701 E2.4490
G1 X108.433 Y229.702 E2.4493
G1 X107.482 Y229.797 E2.4717
G1 X107.471 Y229.798 E2.4720
G1 X107.359 Y229.806 E2.4747
G1 X107.347 Y229.807 E2.4749
G1 X105.549 Y229.894 E2.5173
G1 X105.537 Y229.894 E2.5175
G1 X105.422 Y229.897 E2.5203
G1 X105.411 Y229.897 E2.5205
G1 X104.422 Y229.894 E2.5438
G1 X104.411 Y229.894 E2.5440
G1 X104.300 Y229.891 E2.5466
G1 X104.288 Y229.890 E2.5469
G1 X102.503 Y229.795 E2.5890
G1 X102.488 Y229.794 E2.5893
G1 X102.339 Y229.781 E2.5928
G1 X102.324 Y229.780 E2.5932
G1 X100.519 Y229.561 E2.6359
G1 X100.508 Y229.560 E2.6362
G1 X100.397 Y229.544 E2.6388
G1 X100.385 Y229.542 E2.6391
G1 X99.461 Y229.382 E2.6612
G1 X99.453 Y229.381 E2.6613
G1 X99.380 Y229.367 E2.6631
G1 X99.372 Y229.365 E2.6633
G1 X98.453 Y229.175 E2.6853
G1 X98.442 Y229.172 E2.6856
G1 X98.333 Y229.146 E2.6883
G1 X98.321 Y229.144 E2.6885
G1 X96.561 Y228.684 E2.7313
G1 X96.546 Y228.680 E2.7317
G1 X96.402 Y228.637 E2.7352
G1 X96.387 Y228.632 E2.7356
G1 X94.661 Y228.055 E2.7784
G1 X94.651 Y228.051 E2.7786
G1 X94.545 Y228.012 E2.7813
G1 X94.534 Y228.008 E2.7816
G1 X93.643 Y227.659 E2.8041
G1 X93.632 Y227.655 E2.8043
G1 X93.529 Y227.611 E2.8070
G1 X93.518 Y227.607 E2.8072
G1 X91.877 Y226.865 E2.8496
G1 X91.866 Y226.860 E2.8499
G1 X91.765 Y226.811 E2.8525
G1 X91.754 Y226.806 E2.8528
G1 X90.920 Y226.377 E2.8748
G1 X90.913 Y226.374 E2.8750
G1 X90.847 Y226.338 E2.8768
G1 X90.840 Y226.334 E2.8770
G1 X90.021 Y225.877 E2.8990
G1 X90.011 Y225.872 E2.8993
G1 X89.914 Y225.814 E2.9020
G1 X89.904 Y225.808 E2.9022
G1 X88.378 Y224.853 E2.9446
G1 X88.368 Y224.846 E2.9448
G1 X88.274 Y224.784 E2.9475
G1 X88.265 Y224.778 E2.9478
G1 X87.480 Y224.229 E2.9703
G1 X87.471 Y224.223 E2.9705
G1 X87.380 Y224.156 E2.9732
G1 X87.371 Y224.149 E2.9735
G1 X85.949 Y223.044 E3.0158
G1 X85.940 Y223.037 E3.0161
G1 X85.853 Y222.965 E3.0187
G1 X85.844 Y222.958 E3.0190
G1 X85.119 Y222.333 E3.0415
G1 X85.111 Y222.325 E3.0418
G1 X85.027 Y222.250 E3.0444
G1 X85.019 Y222.242 E3.0447
G1 X83.702 Y220.985 E3.0875
G1 X83.691 Y220.975 E3.0878
G1 X83.586 Y220.867 E3.0914
G1 X83.576 Y220.856 E3.0917
G1 X82.347 Y219.514 E3.1345
G1 X82.339 Y219.505 E3.1348
G1 X82.265 Y219.420 E3.1374
G1 X82.258 Y219.411 E3.1377
G1 X81.660 Y218.688 E3.1598
G1 X81.655 Y218.682 E3.1599
G1 X81.608 Y218.624 E3.1617
G1 X81.604 Y218.618 E3.1619
G1 X81.031 Y217.874 E3.1840
G1 X81.024 Y217.865 E3.1842
G1 X80.957 Y217.774 E3.1869
G1 X80.951 Y217.765 E3.1871
G1 X79.914 Y216.269 E3.2299
G1 X79.906 Y216.257 E3.2303
G1 X79.824 Y216.130 E3.2338
G1 X79.816 Y216.117 E3.2342
G1 X78.883 Y214.555 E3.2770
G1 X78.877 Y214.545 E3.2772
G1 X78.822 Y214.447 E3.2799
G1 X78.816 Y214.437 E3.2802
G1 X78.376 Y213.608 E3.3022
G1 X78.373 Y213.601 E3.3024
G1 X78.339 Y213.534 E3.3042
G1 X78.335 Y213.528 E3.3044
G1 X77.924 Y212.684 E3.3264
G1 X77.919 Y212.674 E3.3267
G1 X77.872 Y212.572 E3.3293
